(1001)
(T1  D=4 CR=0 - ZMIN=-12.5 - FLAT END MILL)
G0 G40 G90 G17
G21

(2D CONTOUR5)
T1 M6
M3 S15000
G0 X3.531 Y-260.866
G0 Z15
G0 Z5
G1 Z4.5 F85.
G1 Z-3.1
G1 X3.538 Y-260.863 Z-3.178
G1 X3.559 Y-260.855 Z-3.253
G1 X3.593 Y-260.84 Z-3.322
G1 X3.639 Y-260.821 Z-3.383
G1 X3.695 Y-260.798 Z-3.433
G1 X3.759 Y-260.771 Z-3.47
G1 X3.828 Y-260.742 Z-3.492
G1 X3.9 Y-260.712 Z-3.5
G1 X4.269 Y-260.558 F350.
G2 X4.575 Y-260.556 I0.154 J-0.369
G2 X4.792 Y-260.772 I-0.152 J-0.37
G3 X6.637 Y-262 I1.845 J0.772 F400.
G1 X53.77
G1 X53.892 Y-261.996
G3 X88.747 Y-222.633 I-2.254 J37.109
G3 X56.408 Y-188.017 I-37.109 J-2.254
G3 X56.152 Y-188 I-0.257 J-1.983
G1 X6.637
G3 X4.637 Y-190 I0 J-2
G1 Y-260
G3 X4.792 Y-260.772 I2 J0
G2 X4.578 Y-261.296 I-0.369 J-0.154 F350.
G1 X4.209 Y-261.45
G1 X4.137 Y-261.48 Z-3.492
G1 X4.068 Y-261.509 Z-3.47
G1 X4.004 Y-261.536 Z-3.433
G1 X3.948 Y-261.559 Z-3.383
G1 X3.902 Y-261.578 Z-3.322
G1 X3.868 Y-261.593 Z-3.253
G1 X3.847 Y-261.601 Z-3.178
G1 X3.84 Y-261.604 Z-3.1
G0 Z5
G0 X3.531 Y-260.866
G1 Z1 F85.
G1 Z-6.6
G1 X3.538 Y-260.863 Z-6.678
G1 X3.559 Y-260.855 Z-6.753
G1 X3.593 Y-260.84 Z-6.822
G1 X3.639 Y-260.821 Z-6.883
G1 X3.695 Y-260.798 Z-6.933
G1 X3.759 Y-260.771 Z-6.97
G1 X3.828 Y-260.742 Z-6.992
G1 X3.9 Y-260.712 Z-7
G1 X4.269 Y-260.558 F350.
G2 X4.575 Y-260.556 I0.154 J-0.369
G2 X4.792 Y-260.772 I-0.152 J-0.37
G3 X6.637 Y-262 I1.845 J0.772 F400.
G1 X53.77
G1 X53.892 Y-261.996
G3 X88.747 Y-222.633 I-2.254 J37.109
G3 X56.408 Y-188.017 I-37.109 J-2.254
G3 X56.152 Y-188 I-0.257 J-1.983
G1 X6.637
G3 X4.637 Y-190 I0 J-2
G1 Y-260
G3 X4.792 Y-260.772 I2 J0
G2 X4.578 Y-261.296 I-0.369 J-0.154 F350.
G1 X4.209 Y-261.45
G1 X4.137 Y-261.48 Z-6.992
G1 X4.068 Y-261.509 Z-6.97
G1 X4.004 Y-261.536 Z-6.933
G1 X3.948 Y-261.559 Z-6.883
G1 X3.902 Y-261.578 Z-6.822
G1 X3.868 Y-261.593 Z-6.753
G1 X3.847 Y-261.601 Z-6.678
G1 X3.84 Y-261.604 Z-6.6
G0 Z5
G0 X3.531 Y-260.866
G1 Z-2.5 F85.
G1 Z-10.1
G1 X3.538 Y-260.863 Z-10.178
G1 X3.559 Y-260.855 Z-10.253
G1 X3.593 Y-260.84 Z-10.322
G1 X3.639 Y-260.821 Z-10.383
G1 X3.695 Y-260.798 Z-10.433
G1 X3.759 Y-260.771 Z-10.47
G1 X3.828 Y-260.742 Z-10.492
G1 X3.9 Y-260.712 Z-10.5
G1 X4.269 Y-260.558 F350.
G2 X4.575 Y-260.556 I0.154 J-0.369
G2 X4.792 Y-260.772 I-0.152 J-0.37
G3 X6.637 Y-262 I1.845 J0.772 F400.
G1 X53.77
G1 X53.892 Y-261.996
G3 X88.747 Y-222.633 I-2.254 J37.109
G3 X56.408 Y-188.017 I-37.109 J-2.254
G3 X56.152 Y-188 I-0.257 J-1.983
G1 X6.637
G3 X4.637 Y-190 I0 J-2
G1 Y-260
G3 X4.792 Y-260.772 I2 J0
G2 X4.578 Y-261.296 I-0.369 J-0.154 F350.
G1 X4.209 Y-261.45
G1 X4.137 Y-261.48 Z-10.492
G1 X4.068 Y-261.509 Z-10.47
G1 X4.004 Y-261.536 Z-10.433
G1 X3.948 Y-261.559 Z-10.383
G1 X3.902 Y-261.578 Z-10.322
G1 X3.868 Y-261.593 Z-10.253
G1 X3.847 Y-261.601 Z-10.178
G1 X3.84 Y-261.604 Z-10.1
G0 Z5
G0 X3.531 Y-260.866
G1 Z-6 F85.
G1 Z-12.1
G1 X3.538 Y-260.863 Z-12.178
G1 X3.559 Y-260.855 Z-12.253
G1 X3.593 Y-260.84 Z-12.322
G1 X3.639 Y-260.821 Z-12.383
G1 X3.695 Y-260.798 Z-12.433
G1 X3.759 Y-260.771 Z-12.47
G1 X3.828 Y-260.742 Z-12.492
G1 X3.9 Y-260.712 Z-12.5
G1 X4.269 Y-260.558 F350.
G2 X4.575 Y-260.556 I0.154 J-0.369
G2 X4.792 Y-260.772 I-0.152 J-0.37
G3 X6.637 Y-262 I1.845 J0.772 F400.
G1 X53.77
G1 X53.892 Y-261.996
G3 X75.329 Y-253.538 I-2.254 J37.109
G1 X75.769 Y-253.169 Z-11.927
G1 X76.203 Y-252.792 Z-11.354
G1 X76.632 Y-252.409 Z-10.782
G1 X76.84 Y-252.218 Z-10.5
G3 X79.631 Y-249.353 I-25.203 J27.331
G1 X80.006 Y-248.917 Z-11.073 F85.
G1 X80.374 Y-248.475 Z-11.646
G1 X80.735 Y-248.028 Z-12.219
G1 X80.91 Y-247.807 Z-12.5
G3 X82.4 Y-204.01 I-29.272 J22.92 F400.
G1 X82.074 Y-203.537 Z-11.927
G1 X81.74 Y-203.069 Z-11.354
G1 X81.399 Y-202.606 Z-10.782
G1 X81.229 Y-202.381 Z-10.5
G3 X78.64 Y-199.332 I-29.592 J-22.506
G1 X78.241 Y-198.917 Z-11.073 F85.
G1 X77.837 Y-198.509 Z-11.646
G1 X77.426 Y-198.107 Z-12.219
G1 X77.222 Y-197.912 Z-12.5
G3 X56.408 Y-188.017 I-25.584 J-26.975 F400.
G3 X56.152 Y-188 I-0.257 J-1.983
G1 X6.637
G3 X4.637 Y-190 I0 J-2
G1 Y-221
G1 Y-223 Z-10.5
G1 Y-227
G1 Y-229 Z-12.5 F85.
G1 Y-260 F400.
G3 X4.792 Y-260.772 I2 J0
G2 X4.578 Y-261.296 I-0.369 J-0.154 F350.
G1 X4.209 Y-261.45
G1 X4.137 Y-261.48 Z-12.492
G1 X4.068 Y-261.509 Z-12.47
G1 X4.004 Y-261.536 Z-12.433
G1 X3.948 Y-261.559 Z-12.383
G1 X3.902 Y-261.578 Z-12.322
G1 X3.868 Y-261.593 Z-12.253
G1 X3.847 Y-261.601 Z-12.178
G1 X3.84 Y-261.604 Z-12.1
G0 Z5
G0 Y-268.396
G1 Z4.5 F85.
G1 Z-3.1
G1 X3.847 Y-268.399 Z-3.178
G1 X3.868 Y-268.407 Z-3.253
G1 X3.902 Y-268.422 Z-3.322
G1 X3.948 Y-268.441 Z-3.383
G1 X4.004 Y-268.464 Z-3.433
G1 X4.068 Y-268.491 Z-3.47
G1 X4.137 Y-268.52 Z-3.492
G1 X4.209 Y-268.55 Z-3.5
G1 X4.578 Y-268.704 F350.
G2 X4.792 Y-269.228 I-0.154 J-0.369
G3 X4.637 Y-270 I1.845 J-0.772 F400.
G1 Y-340
G3 X6.637 Y-342 I2 J0
G1 X53.77
G1 X53.892 Y-341.996
G3 X88.747 Y-302.633 I-2.254 J37.109
G3 X56.408 Y-268.017 I-37.109 J-2.254
G3 X56.152 Y-268 I-0.257 J-1.983
G1 X6.637
G3 X4.792 Y-269.228 I0 J-2
G2 X4.575 Y-269.444 I-0.369 J0.154 F350.
G2 X4.269 Y-269.442 I-0.152 J0.37
G1 X3.9 Y-269.288
G1 X3.828 Y-269.258 Z-3.492
G1 X3.759 Y-269.229 Z-3.47
G1 X3.695 Y-269.202 Z-3.433
G1 X3.639 Y-269.179 Z-3.383
G1 X3.593 Y-269.16 Z-3.322
G1 X3.559 Y-269.145 Z-3.253
G1 X3.538 Y-269.137 Z-3.178
G1 X3.531 Y-269.134 Z-3.1
G0 Z5
G0 X3.84 Y-268.396
G1 Z1 F85.
G1 Z-6.6
G1 X3.847 Y-268.399 Z-6.678
G1 X3.868 Y-268.407 Z-6.753
G1 X3.902 Y-268.422 Z-6.822
G1 X3.948 Y-268.441 Z-6.883
G1 X4.004 Y-268.464 Z-6.933
G1 X4.068 Y-268.491 Z-6.97
G1 X4.137 Y-268.52 Z-6.992
G1 X4.209 Y-268.55 Z-7
G1 X4.578 Y-268.704 F350.
G2 X4.792 Y-269.228 I-0.154 J-0.369
G3 X4.637 Y-270 I1.845 J-0.772 F400.
G1 Y-340
G3 X6.637 Y-342 I2 J0
G1 X53.77
G1 X53.892 Y-341.996
G3 X88.747 Y-302.633 I-2.254 J37.109
G3 X56.408 Y-268.017 I-37.109 J-2.254
G3 X56.152 Y-268 I-0.257 J-1.983
G1 X6.637
G3 X4.792 Y-269.228 I0 J-2
G2 X4.575 Y-269.444 I-0.369 J0.154 F350.
G2 X4.269 Y-269.442 I-0.152 J0.37
G1 X3.9 Y-269.288
G1 X3.828 Y-269.258 Z-6.992
G1 X3.759 Y-269.229 Z-6.97
G1 X3.695 Y-269.202 Z-6.933
G1 X3.639 Y-269.179 Z-6.883
G1 X3.593 Y-269.16 Z-6.822
G1 X3.559 Y-269.145 Z-6.753
G1 X3.538 Y-269.137 Z-6.678
G1 X3.531 Y-269.134 Z-6.6
G0 Z5
G0 X3.84 Y-268.396
G1 Z-2.5 F85.
G1 Z-10.1
G1 X3.847 Y-268.399 Z-10.178
G1 X3.868 Y-268.407 Z-10.253
G1 X3.902 Y-268.422 Z-10.322
G1 X3.948 Y-268.441 Z-10.383
G1 X4.004 Y-268.464 Z-10.433
G1 X4.068 Y-268.491 Z-10.47
G1 X4.137 Y-268.52 Z-10.492
G1 X4.209 Y-268.55 Z-10.5
G1 X4.578 Y-268.704 F350.
G2 X4.792 Y-269.228 I-0.154 J-0.369
G3 X4.637 Y-270 I1.845 J-0.772 F400.
G1 Y-340
G3 X6.637 Y-342 I2 J0
G1 X53.77
G1 X53.892 Y-341.996
G3 X88.747 Y-302.633 I-2.254 J37.109
G3 X56.408 Y-268.017 I-37.109 J-2.254
G3 X56.152 Y-268 I-0.257 J-1.983
G1 X6.637
G3 X4.792 Y-269.228 I0 J-2
G2 X4.575 Y-269.444 I-0.369 J0.154 F350.
G2 X4.269 Y-269.442 I-0.152 J0.37
G1 X3.9 Y-269.288
G1 X3.828 Y-269.258 Z-10.492
G1 X3.759 Y-269.229 Z-10.47
G1 X3.695 Y-269.202 Z-10.433
G1 X3.639 Y-269.179 Z-10.383
G1 X3.593 Y-269.16 Z-10.322
G1 X3.559 Y-269.145 Z-10.253
G1 X3.538 Y-269.137 Z-10.178
G1 X3.531 Y-269.134 Z-10.1
G0 Z5
G0 X3.84 Y-268.396
G1 Z-6 F85.
G1 Z-12.1
G1 X3.847 Y-268.399 Z-12.178
G1 X3.868 Y-268.407 Z-12.253
G1 X3.902 Y-268.422 Z-12.322
G1 X3.948 Y-268.441 Z-12.383
G1 X4.004 Y-268.464 Z-12.433
G1 X4.068 Y-268.491 Z-12.47
G1 X4.137 Y-268.52 Z-12.492
G1 X4.209 Y-268.55 Z-12.5
G1 X4.578 Y-268.704 F350.
G2 X4.792 Y-269.228 I-0.154 J-0.369
G3 X4.637 Y-270 I1.845 J-0.772 F400.
G1 Y-301
G1 Y-303 Z-10.5
G1 Y-307
G1 Y-309 Z-12.5 F85.
G1 Y-340 F400.
G3 X6.637 Y-342 I2 J0
G1 X53.77
G1 X53.892 Y-341.996
G3 X75.329 Y-333.538 I-2.254 J37.109
G1 X75.769 Y-333.169 Z-11.927
G1 X76.203 Y-332.792 Z-11.354
G1 X76.632 Y-332.409 Z-10.782
G1 X76.84 Y-332.218 Z-10.5
G3 X79.631 Y-329.353 I-25.203 J27.331
G1 X80.006 Y-328.917 Z-11.073 F85.
G1 X80.374 Y-328.475 Z-11.646
G1 X80.735 Y-328.028 Z-12.219
G1 X80.91 Y-327.807 Z-12.5
G3 X82.4 Y-284.01 I-29.272 J22.92 F400.
G1 X82.074 Y-283.537 Z-11.927
G1 X81.74 Y-283.069 Z-11.354
G1 X81.399 Y-282.606 Z-10.782
G1 X81.229 Y-282.381 Z-10.5
G3 X78.64 Y-279.332 I-29.592 J-22.506
G1 X78.241 Y-278.917 Z-11.073 F85.
G1 X77.837 Y-278.509 Z-11.646
G1 X77.426 Y-278.107 Z-12.219
G1 X77.222 Y-277.912 Z-12.5
G3 X56.408 Y-268.017 I-25.584 J-26.975 F400.
G3 X56.152 Y-268 I-0.257 J-1.983
G1 X6.637
G3 X4.792 Y-269.228 I0 J-2
G2 X4.575 Y-269.444 I-0.369 J0.154 F350.
G2 X4.269 Y-269.442 I-0.152 J0.37
G1 X3.9 Y-269.288
G1 X3.828 Y-269.258 Z-12.492
G1 X3.759 Y-269.229 Z-12.47
G1 X3.695 Y-269.202 Z-12.433
G1 X3.639 Y-269.179 Z-12.383
G1 X3.593 Y-269.16 Z-12.322
G1 X3.559 Y-269.145 Z-12.253
G1 X3.538 Y-269.137 Z-12.178
G1 X3.531 Y-269.134 Z-12.1
G0 Z5
G0 X-15.061 Y-265.4
G1 Z4.5 F85.
G1 Z-3.1
G1 X-15.069 Z-3.178
G1 X-15.091 Z-3.253
G1 X-15.128 Z-3.322
G1 X-15.178 Z-3.383
G1 X-15.239 Z-3.433
G1 X-15.308 Z-3.47
G1 X-15.383 Z-3.492
G1 X-15.461 Z-3.5
G1 X-15.861 F350.
G2 X-16.261 Y-265 I0 J0.4
G1 Y63.255 F400.
G3 X-18.261 Y65.255 I-2 J0
G1 X-88.261
G3 X-90.261 Y63.255 I0 J-2
G1 Y-336.745
G3 X-88.261 Y-338.745 I2 J0
G1 X-18.261
G3 X-16.261 Y-336.745 I0 J2
G1 Y-265
G2 X-15.861 Y-264.6 I0.4 J0 F350.
G1 X-15.461
G1 X-15.383 Z-3.492
G1 X-15.308 Z-3.47
G1 X-15.239 Z-3.433
G1 X-15.178 Z-3.383
G1 X-15.128 Z-3.322
G1 X-15.091 Z-3.253
G1 X-15.069 Z-3.178
G1 X-15.061 Z-3.1
G0 Z5
G0 Y-265.4
G1 Z1 F85.
G1 Z-6.6
G1 X-15.069 Z-6.678
G1 X-15.091 Z-6.753
G1 X-15.128 Z-6.822
G1 X-15.178 Z-6.883
G1 X-15.239 Z-6.933
G1 X-15.308 Z-6.97
G1 X-15.383 Z-6.992
G1 X-15.461 Z-7
G1 X-15.861 F350.
G2 X-16.261 Y-265 I0 J0.4
G1 Y63.255 F400.
G3 X-18.261 Y65.255 I-2 J0
G1 X-88.261
G3 X-90.261 Y63.255 I0 J-2
G1 Y-336.745
G3 X-88.261 Y-338.745 I2 J0
G1 X-18.261
G3 X-16.261 Y-336.745 I0 J2
G1 Y-265
G2 X-15.861 Y-264.6 I0.4 J0 F350.
G1 X-15.461
G1 X-15.383 Z-6.992
G1 X-15.308 Z-6.97
G1 X-15.239 Z-6.933
G1 X-15.178 Z-6.883
G1 X-15.128 Z-6.822
G1 X-15.091 Z-6.753
G1 X-15.069 Z-6.678
G1 X-15.061 Z-6.6
G0 Z5
G0 Y-265.4
G1 Z-2.5 F85.
G1 Z-10.1
G1 X-15.069 Z-10.178
G1 X-15.091 Z-10.253
G1 X-15.128 Z-10.322
G1 X-15.178 Z-10.383
G1 X-15.239 Z-10.433
G1 X-15.308 Z-10.47
G1 X-15.383 Z-10.492
G1 X-15.461 Z-10.5
G1 X-15.861 F350.
G2 X-16.261 Y-265 I0 J0.4
G1 Y63.255 F400.
G3 X-18.261 Y65.255 I-2 J0
G1 X-88.261
G3 X-90.261 Y63.255 I0 J-2
G1 Y-336.745
G3 X-88.261 Y-338.745 I2 J0
G1 X-18.261
G3 X-16.261 Y-336.745 I0 J2
G1 Y-265
G2 X-15.861 Y-264.6 I0.4 J0 F350.
G1 X-15.461
G1 X-15.383 Z-10.492
G1 X-15.308 Z-10.47
G1 X-15.239 Z-10.433
G1 X-15.178 Z-10.383
G1 X-15.128 Z-10.322
G1 X-15.091 Z-10.253
G1 X-15.069 Z-10.178
G1 X-15.061 Z-10.1
G0 Z5
G0 Y-265.4
G1 Z-6 F85.
G1 Z-12.1
G1 X-15.069 Z-12.178
G1 X-15.091 Z-12.253
G1 X-15.128 Z-12.322
G1 X-15.178 Z-12.383
G1 X-15.239 Z-12.433
G1 X-15.308 Z-12.47
G1 X-15.383 Z-12.492
G1 X-15.461 Z-12.5
G1 X-15.861 F350.
G2 X-16.261 Y-265 I0 J0.4
G1 Y-255.031 F400.
G1 Y-253.031 Z-10.5
G1 Y-249.031
G1 Y-247.031 Z-12.5 F85.
G1 Y-197.888 F400.
G1 Y-195.888 Z-10.5
G1 Y-191.888
G1 Y-189.888 Z-12.5 F85.
G1 Y-140.745 F400.
G1 Y-138.745 Z-10.5
G1 Y-134.745
G1 Y-132.745 Z-12.5 F85.
G1 Y-83.602 F400.
G1 Y-81.602 Z-10.5
G1 Y-77.602
G1 Y-75.602 Z-12.5 F85.
G1 Y-26.459 F400.
G1 Y-24.459 Z-10.5
G1 Y-20.459
G1 Y-18.459 Z-12.5 F85.
G1 Y30.684 F400.
G1 Y32.683 Z-10.5
G1 Y36.683
G1 Y38.683 Z-12.5 F85.
G1 Y63.255 F400.
G3 X-18.261 Y65.255 I-2 J0
G1 X-49.261
G1 X-51.261 Z-10.5
G1 X-55.261
G1 X-57.261 Z-12.5 F85.
G1 X-88.261 F400.
G3 X-90.261 Y63.255 I0 J-2
G1 Y38.683
G1 Y36.683 Z-10.5
G1 Y32.683
G1 Y30.684 Z-12.5 F85.
G1 Y-18.459 F400.
G1 Y-20.459 Z-10.5
G1 Y-24.459
G1 Y-26.459 Z-12.5 F85.
G1 Y-75.602 F400.
G1 Y-77.602 Z-10.5
G1 Y-81.602
G1 Y-83.602 Z-12.5 F85.
G1 Y-132.745 F400.
G1 Y-134.745 Z-10.5
G1 Y-138.745
G1 Y-140.745 Z-12.5 F85.
G1 Y-189.888 F400.
G1 Y-191.888 Z-10.5
G1 Y-195.888
G1 Y-197.888 Z-12.5 F85.
G1 Y-247.031 F400.
G1 Y-249.031 Z-10.5
G1 Y-253.031
G1 Y-255.031 Z-12.5 F85.
G1 Y-304.174 F400.
G1 Y-306.174 Z-10.5
G1 Y-310.174
G1 Y-312.174 Z-12.5 F85.
G1 Y-336.745 F400.
G3 X-88.261 Y-338.745 I2 J0
G1 X-57.261
G1 X-55.261 Z-10.5
G1 X-51.261
G1 X-49.261 Z-12.5 F85.
G1 X-18.261 F400.
G3 X-16.261 Y-336.745 I0 J2
G1 Y-312.174
G1 Y-310.174 Z-10.5
G1 Y-306.174
G1 Y-304.174 Z-12.5 F85.
G1 Y-265 F400.
G2 X-15.861 Y-264.6 I0.4 J0 F350.
G1 X-15.461
G1 X-15.383 Z-12.492
G1 X-15.308 Z-12.47
G1 X-15.239 Z-12.433
G1 X-15.178 Z-12.383
G1 X-15.128 Z-12.322
G1 X-15.091 Z-12.253
G1 X-15.069 Z-12.178
G1 X-15.061 Z-12.1
G0 Z5
G0 Y-355.75
G1 Z4.5 F85.
G1 Z-3.1
G1 X-15.066 Y-355.756 Z-3.178
G1 X-15.081 Y-355.773 Z-3.253
G1 X-15.106 Y-355.8 Z-3.322
G1 X-15.139 Y-355.837 Z-3.383
G1 X-15.18 Y-355.883 Z-3.433
G1 X-15.226 Y-355.934 Z-3.47
G1 X-15.276 Y-355.99 Z-3.492
G1 X-15.328 Y-356.048 Z-3.5
G1 X-15.595 Y-356.346 F350.
G2 X-15.87 Y-356.479 I-0.298 J0.267
G2 X-16.159 Y-356.378 I-0.022 J0.399
G3 X-36.183 Y-347.21 I-24.794 J-27.702 F400.
G3 X-36.439 Y-347.193 I-0.257 J-1.983
G1 X-85.954
G3 X-87.954 Y-349.193 I0 J-2
G1 Y-419.193
G3 X-85.954 Y-421.193 I2 J0
G1 X-38.821
G1 X-38.7 Y-421.189
G3 X-3.844 Y-381.826 I-2.254 J37.109
G3 X-16.159 Y-356.378 I-37.109 J-2.254
G2 X-16.191 Y-355.813 I0.267 J0.298 F350.
G1 X-15.924 Y-355.515
G1 X-15.872 Y-355.457 Z-3.492
G1 X-15.822 Y-355.401 Z-3.47
G1 X-15.776 Y-355.349 Z-3.433
G1 X-15.735 Y-355.304 Z-3.383
G1 X-15.702 Y-355.267 Z-3.322
G1 X-15.677 Y-355.239 Z-3.253
G1 X-15.662 Y-355.222 Z-3.178
G1 X-15.657 Y-355.217 Z-3.1
G0 Z5
G0 X-15.061 Y-355.75
G1 Z1 F85.
G1 Z-6.6
G1 X-15.066 Y-355.756 Z-6.678
G1 X-15.081 Y-355.773 Z-6.753
G1 X-15.106 Y-355.8 Z-6.822
G1 X-15.139 Y-355.837 Z-6.883
G1 X-15.18 Y-355.883 Z-6.933
G1 X-15.226 Y-355.934 Z-6.97
G1 X-15.276 Y-355.99 Z-6.992
G1 X-15.328 Y-356.048 Z-7
G1 X-15.595 Y-356.346 F350.
G2 X-15.87 Y-356.479 I-0.298 J0.267
G2 X-16.159 Y-356.378 I-0.022 J0.399
G3 X-36.183 Y-347.21 I-24.794 J-27.702 F400.
G3 X-36.439 Y-347.193 I-0.257 J-1.983
G1 X-85.954
G3 X-87.954 Y-349.193 I0 J-2
G1 Y-419.193
G3 X-85.954 Y-421.193 I2 J0
G1 X-38.821
G1 X-38.7 Y-421.189
G3 X-3.844 Y-381.826 I-2.254 J37.109
G3 X-16.159 Y-356.378 I-37.109 J-2.254
G2 X-16.191 Y-355.813 I0.267 J0.298 F350.
G1 X-15.924 Y-355.515
G1 X-15.872 Y-355.457 Z-6.992
G1 X-15.822 Y-355.401 Z-6.97
G1 X-15.776 Y-355.349 Z-6.933
G1 X-15.735 Y-355.304 Z-6.883
G1 X-15.702 Y-355.267 Z-6.822
G1 X-15.677 Y-355.239 Z-6.753
G1 X-15.662 Y-355.222 Z-6.678
G1 X-15.657 Y-355.217 Z-6.6
G0 Z5
G0 X-15.061 Y-355.75
G1 Z-2.5 F85.
G1 Z-10.1
G1 X-15.066 Y-355.756 Z-10.178
G1 X-15.081 Y-355.773 Z-10.253
G1 X-15.106 Y-355.8 Z-10.322
G1 X-15.139 Y-355.837 Z-10.383
G1 X-15.18 Y-355.883 Z-10.433
G1 X-15.226 Y-355.934 Z-10.47
G1 X-15.276 Y-355.99 Z-10.492
G1 X-15.328 Y-356.048 Z-10.5
G1 X-15.595 Y-356.346 F350.
G2 X-15.87 Y-356.479 I-0.298 J0.267
G2 X-16.159 Y-356.378 I-0.022 J0.399
G3 X-36.183 Y-347.21 I-24.794 J-27.702 F400.
G3 X-36.439 Y-347.193 I-0.257 J-1.983
G1 X-85.954
G3 X-87.954 Y-349.193 I0 J-2
G1 Y-419.193
G3 X-85.954 Y-421.193 I2 J0
G1 X-38.821
G1 X-38.7 Y-421.189
G3 X-3.844 Y-381.826 I-2.254 J37.109
G3 X-16.159 Y-356.378 I-37.109 J-2.254
G2 X-16.191 Y-355.813 I0.267 J0.298 F350.
G1 X-15.924 Y-355.515
G1 X-15.872 Y-355.457 Z-10.492
G1 X-15.822 Y-355.401 Z-10.47
G1 X-15.776 Y-355.349 Z-10.433
G1 X-15.735 Y-355.304 Z-10.383
G1 X-15.702 Y-355.267 Z-10.322
G1 X-15.677 Y-355.239 Z-10.253
G1 X-15.662 Y-355.222 Z-10.178
G1 X-15.657 Y-355.217 Z-10.1
G0 Z5
G0 X-15.061 Y-355.75
G1 Z-6 F85.
G1 Z-12.1
G1 X-15.066 Y-355.756 Z-12.178
G1 X-15.081 Y-355.773 Z-12.253
G1 X-15.106 Y-355.8 Z-12.322
G1 X-15.139 Y-355.837 Z-12.383
G1 X-15.18 Y-355.883 Z-12.433
G1 X-15.226 Y-355.934 Z-12.47
G1 X-15.276 Y-355.99 Z-12.492
G1 X-15.328 Y-356.048 Z-12.5
G1 X-15.595 Y-356.346 F350.
G2 X-15.87 Y-356.479 I-0.298 J0.267
G2 X-16.159 Y-356.378 I-0.022 J0.399
G3 X-36.183 Y-347.21 I-24.794 J-27.702 F400.
G3 X-36.439 Y-347.193 I-0.257 J-1.983
G1 X-85.954
G3 X-87.954 Y-349.193 I0 J-2
G1 Y-380.193
G1 Y-382.193 Z-10.5
G1 Y-386.193
G1 Y-388.193 Z-12.5 F85.
G1 Y-419.193 F400.
G3 X-85.954 Y-421.193 I2 J0
G1 X-38.821
G1 X-38.7 Y-421.189
G3 X-17.262 Y-412.731 I-2.254 J37.109
G1 X-16.822 Y-412.361 Z-11.927
G1 X-16.387 Y-411.985 Z-11.354
G1 X-15.959 Y-411.601 Z-10.782
G1 X-15.751 Y-411.411 Z-10.5
G3 X-12.96 Y-408.545 I-25.203 J27.331
G1 X-12.585 Y-408.109 Z-11.073 F85.
G1 X-12.217 Y-407.668 Z-11.646
G1 X-11.856 Y-407.221 Z-12.219
G1 X-11.681 Y-406.999 Z-12.5
G3 X-10.191 Y-363.203 I-29.273 J22.919 F400.
G1 X-10.518 Y-362.73 Z-11.927
G1 X-10.851 Y-362.262 Z-11.354
G1 X-11.192 Y-361.799 Z-10.782
G1 X-11.362 Y-361.574 Z-10.5
G3 X-13.952 Y-358.525 I-29.591 J-22.506
G1 X-14.35 Y-358.11 Z-11.073 F85.
G1 X-14.755 Y-357.702 Z-11.646
G1 X-15.166 Y-357.3 Z-12.219
G1 X-15.37 Y-357.105 Z-12.5
G3 X-16.159 Y-356.378 I-25.584 J-26.975 F400.
G2 X-16.191 Y-355.813 I0.267 J0.298 F350.
G1 X-15.924 Y-355.515
G1 X-15.872 Y-355.457 Z-12.492
G1 X-15.822 Y-355.401 Z-12.47
G1 X-15.776 Y-355.349 Z-12.433
G1 X-15.735 Y-355.304 Z-12.383
G1 X-15.702 Y-355.267 Z-12.322
G1 X-15.677 Y-355.239 Z-12.253
G1 X-15.662 Y-355.222 Z-12.178
G1 X-15.657 Y-355.217 Z-12.1
G0 Z5
G0 X3.591 Y-348.94
G1 Z4.5 F85.
G1 Z-3.1
G1 X3.599 Y-348.942 Z-3.178
G1 X3.621 Y-348.947 Z-3.253
G1 X3.657 Y-348.955 Z-3.322
G1 X3.706 Y-348.965 Z-3.383
G1 X3.765 Y-348.978 Z-3.433
G1 X3.833 Y-348.992 Z-3.47
G1 X3.906 Y-349.008 Z-3.492
G1 X3.983 Y-349.024 Z-3.5
G1 X4.374 Y-349.108 F350.
G2 X4.681 Y-349.582 I-0.084 J-0.391
G3 X4.637 Y-350 I1.956 J-0.418 F400.
G1 Y-420
G3 X6.637 Y-422 I2 J0
G1 X53.77
G1 X53.892 Y-421.996
G3 X88.747 Y-382.633 I-2.254 J37.109
G3 X56.408 Y-348.017 I-37.109 J-2.254
G3 X56.152 Y-348 I-0.257 J-1.983
G1 X6.637
G3 X4.681 Y-349.582 I0 J-2
G2 X4.508 Y-349.834 I-0.391 J0.084 F350.
G2 X4.207 Y-349.89 I-0.218 J0.336
G1 X3.816 Y-349.806
G1 X3.739 Y-349.79 Z-3.492
G1 X3.666 Y-349.774 Z-3.47
G1 X3.598 Y-349.76 Z-3.433
G1 X3.539 Y-349.747 Z-3.383
G1 X3.49 Y-349.737 Z-3.322
G1 X3.454 Y-349.729 Z-3.253
G1 X3.432 Y-349.724 Z-3.178
G1 X3.424 Y-349.723 Z-3.1
G0 Z5
G0 X3.591 Y-348.94
G1 Z1 F85.
G1 Z-6.6
G1 X3.599 Y-348.942 Z-6.678
G1 X3.621 Y-348.947 Z-6.753
G1 X3.657 Y-348.955 Z-6.822
G1 X3.706 Y-348.965 Z-6.883
G1 X3.765 Y-348.978 Z-6.933
G1 X3.833 Y-348.992 Z-6.97
G1 X3.906 Y-349.008 Z-6.992
G1 X3.983 Y-349.024 Z-7
G1 X4.374 Y-349.108 F350.
G2 X4.681 Y-349.582 I-0.084 J-0.391
G3 X4.637 Y-350 I1.956 J-0.418 F400.
G1 Y-420
G3 X6.637 Y-422 I2 J0
G1 X53.77
G1 X53.892 Y-421.996
G3 X88.747 Y-382.633 I-2.254 J37.109
G3 X56.408 Y-348.017 I-37.109 J-2.254
G3 X56.152 Y-348 I-0.257 J-1.983
G1 X6.637
G3 X4.681 Y-349.582 I0 J-2
G2 X4.508 Y-349.834 I-0.391 J0.084 F350.
G2 X4.207 Y-349.89 I-0.218 J0.336
G1 X3.816 Y-349.806
G1 X3.739 Y-349.79 Z-6.992
G1 X3.666 Y-349.774 Z-6.97
G1 X3.598 Y-349.76 Z-6.933
G1 X3.539 Y-349.747 Z-6.883
G1 X3.49 Y-349.737 Z-6.822
G1 X3.454 Y-349.729 Z-6.753
G1 X3.432 Y-349.724 Z-6.678
G1 X3.424 Y-349.723 Z-6.6
G0 Z5
G0 X3.591 Y-348.94
G1 Z-2.5 F85.
G1 Z-10.1
G1 X3.599 Y-348.942 Z-10.178
G1 X3.621 Y-348.947 Z-10.253
G1 X3.657 Y-348.955 Z-10.322
G1 X3.706 Y-348.965 Z-10.383
G1 X3.765 Y-348.978 Z-10.433
G1 X3.833 Y-348.992 Z-10.47
G1 X3.906 Y-349.008 Z-10.492
G1 X3.983 Y-349.024 Z-10.5
G1 X4.374 Y-349.108 F350.
G2 X4.681 Y-349.582 I-0.084 J-0.391
G3 X4.637 Y-350 I1.956 J-0.418 F400.
G1 Y-420
G3 X6.637 Y-422 I2 J0
G1 X53.77
G1 X53.892 Y-421.996
G3 X88.747 Y-382.633 I-2.254 J37.109
G3 X56.408 Y-348.017 I-37.109 J-2.254
G3 X56.152 Y-348 I-0.257 J-1.983
G1 X6.637
G3 X4.681 Y-349.582 I0 J-2
G2 X4.508 Y-349.834 I-0.391 J0.084 F350.
G2 X4.207 Y-349.89 I-0.218 J0.336
G1 X3.816 Y-349.806
G1 X3.739 Y-349.79 Z-10.492
G1 X3.666 Y-349.774 Z-10.47
G1 X3.598 Y-349.76 Z-10.433
G1 X3.539 Y-349.747 Z-10.383
G1 X3.49 Y-349.737 Z-10.322
G1 X3.454 Y-349.729 Z-10.253
G1 X3.432 Y-349.724 Z-10.178
G1 X3.424 Y-349.723 Z-10.1
G0 Z5
G0 X3.591 Y-348.94
G1 Z-6 F85.
G1 Z-12.1
G1 X3.599 Y-348.942 Z-12.178
G1 X3.621 Y-348.947 Z-12.253
G1 X3.657 Y-348.955 Z-12.322
G1 X3.706 Y-348.965 Z-12.383
G1 X3.765 Y-348.978 Z-12.433
G1 X3.833 Y-348.992 Z-12.47
G1 X3.906 Y-349.008 Z-12.492
G1 X3.983 Y-349.024 Z-12.5
G1 X4.374 Y-349.108 F350.
G2 X4.681 Y-349.582 I-0.084 J-0.391
G3 X4.637 Y-350 I1.956 J-0.418 F400.
G1 Y-381
G1 Y-383 Z-10.5
G1 Y-387
G1 Y-389 Z-12.5 F85.
G1 Y-420 F400.
G3 X6.637 Y-422 I2 J0
G1 X53.77
G1 X53.892 Y-421.996
G3 X75.329 Y-413.538 I-2.254 J37.109
G1 X75.769 Y-413.169 Z-11.927
G1 X76.203 Y-412.792 Z-11.354
G1 X76.632 Y-412.409 Z-10.782
G1 X76.84 Y-412.218 Z-10.5
G3 X79.631 Y-409.353 I-25.203 J27.331
G1 X80.006 Y-408.917 Z-11.073 F85.
G1 X80.374 Y-408.475 Z-11.646
G1 X80.735 Y-408.028 Z-12.219
G1 X80.91 Y-407.807 Z-12.5
G3 X82.4 Y-364.01 I-29.272 J22.92 F400.
G1 X82.074 Y-363.537 Z-11.927
G1 X81.74 Y-363.069 Z-11.354
G1 X81.399 Y-362.606 Z-10.782
G1 X81.229 Y-362.381 Z-10.5
G3 X78.64 Y-359.332 I-29.592 J-22.506
G1 X78.241 Y-358.917 Z-11.073 F85.
G1 X77.837 Y-358.509 Z-11.646
G1 X77.426 Y-358.107 Z-12.219
G1 X77.222 Y-357.912 Z-12.5
G3 X56.408 Y-348.017 I-25.584 J-26.975 F400.
G3 X56.152 Y-348 I-0.257 J-1.983
G1 X6.637
G3 X4.681 Y-349.582 I0 J-2
G2 X4.508 Y-349.834 I-0.391 J0.084 F350.
G2 X4.207 Y-349.89 I-0.218 J0.336
G1 X3.816 Y-349.806
G1 X3.739 Y-349.79 Z-12.492
G1 X3.666 Y-349.774 Z-12.47
G1 X3.598 Y-349.76 Z-12.433
G1 X3.539 Y-349.747 Z-12.383
G1 X3.49 Y-349.737 Z-12.322
G1 X3.454 Y-349.729 Z-12.253
G1 X3.432 Y-349.724 Z-12.178
G1 X3.424 Y-349.723 Z-12.1
G0 Z5
G0 X3.451 Y-429.501
G1 Z4.5 F85.
G1 Z-3.1
G1 X3.459 Y-429.502 Z-3.178
G1 X3.482 Z-3.253
G1 X3.519 Y-429.504 Z-3.322
G1 X3.568 Y-429.505 Z-3.383
G1 X3.629 Y-429.507 Z-3.433
G1 X3.698 Y-429.509 Z-3.47
G1 X3.773 Y-429.511 Z-3.492
G1 X3.851 Y-429.514 Z-3.5
G1 X4.251 Y-429.526 F350.
G2 X4.638 Y-429.938 I-0.012 J-0.4
G1 X4.637 Y-430 F400.
G1 Y-500
G3 X6.637 Y-502 I2 J0
G1 X53.77
G1 X53.892 Y-501.996
G3 X88.747 Y-462.633 I-2.254 J37.109
G3 X56.408 Y-428.017 I-37.109 J-2.254
G3 X56.152 Y-428 I-0.257 J-1.983
G1 X6.637
G3 X4.638 Y-429.938 I0 J-2
G2 X4.512 Y-430.217 I-0.4 J0.012 F350.
G2 X4.226 Y-430.326 I-0.274 J0.291
G1 X3.826 Y-430.313
G1 X3.748 Y-430.311 Z-3.492
G1 X3.673 Y-430.309 Z-3.47
G1 X3.604 Y-430.307 Z-3.433
G1 X3.544 Y-430.305 Z-3.383
G1 X3.494 Y-430.303 Z-3.322
G1 X3.457 Y-430.302 Z-3.253
G1 X3.434 Y-430.301 Z-3.178
G1 X3.426 Z-3.1
G0 Z5
G0 X3.451 Y-429.501
G1 Z1 F85.
G1 Z-6.6
G1 X3.459 Y-429.502 Z-6.678
G1 X3.482 Z-6.753
G1 X3.519 Y-429.504 Z-6.822
G1 X3.568 Y-429.505 Z-6.883
G1 X3.629 Y-429.507 Z-6.933
G1 X3.698 Y-429.509 Z-6.97
G1 X3.773 Y-429.511 Z-6.992
G1 X3.851 Y-429.514 Z-7
G1 X4.251 Y-429.526 F350.
G2 X4.638 Y-429.938 I-0.012 J-0.4
G1 X4.637 Y-430 F400.
G1 Y-500
G3 X6.637 Y-502 I2 J0
G1 X53.77
G1 X53.892 Y-501.996
G3 X88.747 Y-462.633 I-2.254 J37.109
G3 X56.408 Y-428.017 I-37.109 J-2.254
G3 X56.152 Y-428 I-0.257 J-1.983
G1 X6.637
G3 X4.638 Y-429.938 I0 J-2
G2 X4.512 Y-430.217 I-0.4 J0.012 F350.
G2 X4.226 Y-430.326 I-0.274 J0.291
G1 X3.826 Y-430.313
G1 X3.748 Y-430.311 Z-6.992
G1 X3.673 Y-430.309 Z-6.97
G1 X3.604 Y-430.307 Z-6.933
G1 X3.544 Y-430.305 Z-6.883
G1 X3.494 Y-430.303 Z-6.822
G1 X3.457 Y-430.302 Z-6.753
G1 X3.434 Y-430.301 Z-6.678
G1 X3.426 Z-6.6
G0 Z5
G0 X3.451 Y-429.501
G1 Z-2.5 F85.
G1 Z-10.1
G1 X3.459 Y-429.502 Z-10.178
G1 X3.482 Z-10.253
G1 X3.519 Y-429.504 Z-10.322
G1 X3.568 Y-429.505 Z-10.383
G1 X3.629 Y-429.507 Z-10.433
G1 X3.698 Y-429.509 Z-10.47
G1 X3.773 Y-429.511 Z-10.492
G1 X3.851 Y-429.514 Z-10.5
G1 X4.251 Y-429.526 F350.
G2 X4.638 Y-429.938 I-0.012 J-0.4
G1 X4.637 Y-430 F400.
G1 Y-500
G3 X6.637 Y-502 I2 J0
G1 X53.77
G1 X53.892 Y-501.996
G3 X88.747 Y-462.633 I-2.254 J37.109
G3 X56.408 Y-428.017 I-37.109 J-2.254
G3 X56.152 Y-428 I-0.257 J-1.983
G1 X6.637
G3 X4.638 Y-429.938 I0 J-2
G2 X4.512 Y-430.217 I-0.4 J0.012 F350.
G2 X4.226 Y-430.326 I-0.274 J0.291
G1 X3.826 Y-430.313
G1 X3.748 Y-430.311 Z-10.492
G1 X3.673 Y-430.309 Z-10.47
G1 X3.604 Y-430.307 Z-10.433
G1 X3.544 Y-430.305 Z-10.383
G1 X3.494 Y-430.303 Z-10.322
G1 X3.457 Y-430.302 Z-10.253
G1 X3.434 Y-430.301 Z-10.178
G1 X3.426 Z-10.1
G0 Z5
G0 X3.451 Y-429.501
G1 Z-6 F85.
G1 Z-12.1
G1 X3.459 Y-429.502 Z-12.178
G1 X3.482 Z-12.253
G1 X3.519 Y-429.504 Z-12.322
G1 X3.568 Y-429.505 Z-12.383
G1 X3.629 Y-429.507 Z-12.433
G1 X3.698 Y-429.509 Z-12.47
G1 X3.773 Y-429.511 Z-12.492
G1 X3.851 Y-429.514 Z-12.5
G1 X4.251 Y-429.526 F350.
G2 X4.638 Y-429.938 I-0.012 J-0.4
G1 X4.637 Y-430 F400.
G1 Y-461
G1 Y-463 Z-10.5
G1 Y-467
G1 Y-469 Z-12.5 F85.
G1 Y-500 F400.
G3 X6.637 Y-502 I2 J0
G1 X53.77
G1 X53.892 Y-501.996
G3 X75.329 Y-493.538 I-2.254 J37.109
G1 X75.769 Y-493.169 Z-11.927
G1 X76.203 Y-492.792 Z-11.354
G1 X76.632 Y-492.409 Z-10.782
G1 X76.84 Y-492.218 Z-10.5
G3 X79.631 Y-489.353 I-25.203 J27.331
G1 X80.006 Y-488.917 Z-11.073 F85.
G1 X80.374 Y-488.475 Z-11.646
G1 X80.735 Y-488.028 Z-12.219
G1 X80.91 Y-487.807 Z-12.5
G3 X82.4 Y-444.01 I-29.272 J22.92 F400.
G1 X82.074 Y-443.537 Z-11.927
G1 X81.74 Y-443.069 Z-11.354
G1 X81.399 Y-442.606 Z-10.782
G1 X81.229 Y-442.381 Z-10.5
G3 X78.64 Y-439.332 I-29.592 J-22.506
G1 X78.241 Y-438.917 Z-11.073 F85.
G1 X77.837 Y-438.509 Z-11.646
G1 X77.426 Y-438.107 Z-12.219
G1 X77.222 Y-437.912 Z-12.5
G3 X56.408 Y-428.017 I-25.584 J-26.975 F400.
G3 X56.152 Y-428 I-0.257 J-1.983
G1 X6.637
G3 X4.638 Y-429.938 I0 J-2
G2 X4.512 Y-430.217 I-0.4 J0.012 F350.
G2 X4.226 Y-430.326 I-0.274 J0.291
G1 X3.826 Y-430.313
G1 X3.748 Y-430.311 Z-12.492
G1 X3.673 Y-430.309 Z-12.47
G1 X3.604 Y-430.307 Z-12.433
G1 X3.544 Y-430.305 Z-12.383
G1 X3.494 Y-430.303 Z-12.322
G1 X3.457 Y-430.302 Z-12.253
G1 X3.434 Y-430.301 Z-12.178
G1 X3.426 Z-12.1
G0 Z5
G0 X-19.583 Y-442.862
G1 Z4.5 F85.
G1 Z-3.1
G1 X-19.587 Y-442.869 Z-3.178
G1 X-19.599 Y-442.888 Z-3.253
G1 X-19.618 Y-442.92 Z-3.322
G1 X-19.644 Y-442.962 Z-3.383
G1 X-19.675 Y-443.014 Z-3.433
G1 X-19.71 Y-443.074 Z-3.47
G1 X-19.749 Y-443.138 Z-3.492
G1 X-19.789 Y-443.205 Z-3.5
G1 X-19.995 Y-443.548 F350.
G2 X-20.241 Y-443.73 I-0.343 J0.206
G2 X-20.544 Y-443.685 I-0.097 J0.388
G3 X-37.424 Y-438.452 I-19.134 J-31.876 F400.
G1 X-37.545 Y-438.448
G1 X-84.678
G3 X-86.678 Y-440.448 I0 J-2
G1 Y-510.448
G3 X-84.678 Y-512.448 I2 J0
G1 X-35.163
G3 X-34.907 Y-512.431 I0 J2
G3 X-2.807 Y-470.79 I-4.771 J36.87
G3 X-20.544 Y-443.685 I-36.87 J-4.771
G2 X-20.726 Y-443.439 I0.206 J0.343 F350.
G2 X-20.681 Y-443.136 I0.388 J0.097
G1 X-20.475 Y-442.793
G1 X-20.435 Y-442.726 Z-3.492
G1 X-20.396 Y-442.662 Z-3.47
G1 X-20.361 Y-442.603 Z-3.433
G1 X-20.33 Y-442.551 Z-3.383
G1 X-20.304 Y-442.508 Z-3.322
G1 X-20.285 Y-442.476 Z-3.253
G1 X-20.273 Y-442.457 Z-3.178
G1 X-20.269 Y-442.45 Z-3.1
G0 Z5
G0 X-19.583 Y-442.862
G1 Z1 F85.
G1 Z-6.6
G1 X-19.587 Y-442.869 Z-6.678
G1 X-19.599 Y-442.888 Z-6.753
G1 X-19.618 Y-442.92 Z-6.822
G1 X-19.644 Y-442.962 Z-6.883
G1 X-19.675 Y-443.014 Z-6.933
G1 X-19.71 Y-443.074 Z-6.97
G1 X-19.749 Y-443.138 Z-6.992
G1 X-19.789 Y-443.205 Z-7
G1 X-19.995 Y-443.548 F350.
G2 X-20.241 Y-443.73 I-0.343 J0.206
G2 X-20.544 Y-443.685 I-0.097 J0.388
G3 X-37.424 Y-438.452 I-19.134 J-31.876 F400.
G1 X-37.545 Y-438.448
G1 X-84.678
G3 X-86.678 Y-440.448 I0 J-2
G1 Y-510.448
G3 X-84.678 Y-512.448 I2 J0
G1 X-35.163
G3 X-34.907 Y-512.431 I0 J2
G3 X-2.807 Y-470.79 I-4.771 J36.87
G3 X-20.544 Y-443.685 I-36.87 J-4.771
G2 X-20.726 Y-443.439 I0.206 J0.343 F350.
G2 X-20.681 Y-443.136 I0.388 J0.097
G1 X-20.475 Y-442.793
G1 X-20.435 Y-442.726 Z-6.992
G1 X-20.396 Y-442.662 Z-6.97
G1 X-20.361 Y-442.603 Z-6.933
G1 X-20.33 Y-442.551 Z-6.883
G1 X-20.304 Y-442.508 Z-6.822
G1 X-20.285 Y-442.476 Z-6.753
G1 X-20.273 Y-442.457 Z-6.678
G1 X-20.269 Y-442.45 Z-6.6
G0 Z5
G0 X-19.583 Y-442.862
G1 Z-2.5 F85.
G1 Z-10.1
G1 X-19.587 Y-442.869 Z-10.178
G1 X-19.599 Y-442.888 Z-10.253
G1 X-19.618 Y-442.92 Z-10.322
G1 X-19.644 Y-442.962 Z-10.383
G1 X-19.675 Y-443.014 Z-10.433
G1 X-19.71 Y-443.074 Z-10.47
G1 X-19.749 Y-443.138 Z-10.492
G1 X-19.789 Y-443.205 Z-10.5
G1 X-19.995 Y-443.548 F350.
G2 X-20.241 Y-443.73 I-0.343 J0.206
G2 X-20.544 Y-443.685 I-0.097 J0.388
G3 X-37.424 Y-438.452 I-19.134 J-31.876 F400.
G1 X-37.545 Y-438.448
G1 X-84.678
G3 X-86.678 Y-440.448 I0 J-2
G1 Y-510.448
G3 X-84.678 Y-512.448 I2 J0
G1 X-35.163
G3 X-34.907 Y-512.431 I0 J2
G3 X-2.807 Y-470.79 I-4.771 J36.87
G3 X-20.544 Y-443.685 I-36.87 J-4.771
G2 X-20.726 Y-443.439 I0.206 J0.343 F350.
G2 X-20.681 Y-443.136 I0.388 J0.097
G1 X-20.475 Y-442.793
G1 X-20.435 Y-442.726 Z-10.492
G1 X-20.396 Y-442.662 Z-10.47
G1 X-20.361 Y-442.603 Z-10.433
G1 X-20.33 Y-442.551 Z-10.383
G1 X-20.304 Y-442.508 Z-10.322
G1 X-20.285 Y-442.476 Z-10.253
G1 X-20.273 Y-442.457 Z-10.178
G1 X-20.269 Y-442.45 Z-10.1
G0 Z5
G0 X-19.583 Y-442.862
G1 Z-6 F85.
G1 Z-12.1
G1 X-19.587 Y-442.869 Z-12.178
G1 X-19.599 Y-442.888 Z-12.253
G1 X-19.618 Y-442.92 Z-12.322
G1 X-19.644 Y-442.962 Z-12.383
G1 X-19.675 Y-443.014 Z-12.433
G1 X-19.71 Y-443.074 Z-12.47
G1 X-19.749 Y-443.138 Z-12.492
G1 X-19.789 Y-443.205 Z-12.5
G1 X-19.995 Y-443.548 F350.
G2 X-20.241 Y-443.73 I-0.343 J0.206
G2 X-20.544 Y-443.685 I-0.097 J0.388
G3 X-37.424 Y-438.452 I-19.134 J-31.876 F400.
G1 X-37.545 Y-438.448
G1 X-84.678
G3 X-86.678 Y-440.448 I0 J-2
G1 Y-471.448
G1 Y-473.448 Z-10.5
G1 Y-477.448
G1 Y-479.448 Z-12.5 F85.
G1 Y-510.448 F400.
G3 X-84.678 Y-512.448 I2 J0
G1 X-35.163
G3 X-34.907 Y-512.431 I0 J2
G3 X-14.094 Y-502.536 I-4.771 J36.87
G1 X-13.68 Y-502.137 Z-11.927
G1 X-13.272 Y-501.732 Z-11.354
G1 X-12.87 Y-501.32 Z-10.782
G1 X-12.676 Y-501.116 Z-10.5
G3 X-10.086 Y-498.067 I-27.002 J25.555
G1 X-9.742 Y-497.607 Z-11.073 F85.
G1 X-9.405 Y-497.142 Z-11.646
G1 X-9.074 Y-496.671 Z-12.219
G1 X-8.915 Y-496.438 Z-12.5
G3 X-10.405 Y-452.642 I-30.763 J20.877 F400.
G1 X-10.763 Y-452.192 Z-11.927
G1 X-11.128 Y-451.748 Z-11.354
G1 X-11.499 Y-451.309 Z-10.782
G1 X-11.684 Y-451.096 Z-10.5
G3 X-14.474 Y-448.23 I-27.994 J-24.465
G1 X-14.9 Y-447.844 Z-11.073 F85.
G1 X-15.332 Y-447.464 Z-11.646
G1 X-15.769 Y-447.091 Z-12.219
G1 X-15.986 Y-446.91 Z-12.5
G3 X-20.544 Y-443.685 I-23.692 J-28.651 F400.
G2 X-20.726 Y-443.439 I0.206 J0.343 F350.
G2 X-20.681 Y-443.136 I0.388 J0.097
G1 X-20.475 Y-442.793
G1 X-20.435 Y-442.726 Z-12.492
G1 X-20.396 Y-442.662 Z-12.47
G1 X-20.361 Y-442.603 Z-12.433
G1 X-20.33 Y-442.551 Z-12.383
G1 X-20.304 Y-442.508 Z-12.322
G1 X-20.285 Y-442.476 Z-12.253
G1 X-20.273 Y-442.457 Z-12.178
G1 X-20.269 Y-442.45 Z-12.1
G0 Z5
G0 X3.437 Y-509.6
G1 Z4.5 F85.
G1 Z-3.1
G1 X3.445 Z-3.178
G1 X3.468 Z-3.253
G1 X3.505 Z-3.322
G1 X3.554 Z-3.383
G1 X3.615 Z-3.433
G1 X3.684 Z-3.47
G1 X3.759 Z-3.492
G1 X3.837 Z-3.5
G1 X4.237 F350.
G2 X4.637 Y-510 I0 J-0.4
G1 Y-580 F400.
G3 X6.637 Y-582 I2 J0
G1 X53.77
G1 X53.892 Y-581.996
G3 X88.747 Y-542.633 I-2.254 J37.109
G3 X56.408 Y-508.017 I-37.109 J-2.254
G3 X56.152 Y-508 I-0.257 J-1.983
G1 X6.637
G3 X4.637 Y-510 I0 J-2
G2 X4.237 Y-510.4 I-0.4 J0 F350.
G1 X3.837
G1 X3.759 Z-3.492
G1 X3.684 Z-3.47
G1 X3.615 Z-3.433
G1 X3.554 Z-3.383
G1 X3.505 Z-3.322
G1 X3.468 Z-3.253
G1 X3.445 Z-3.178
G1 X3.437 Z-3.1
G0 Z5
G0 Y-509.6
G1 Z1 F85.
G1 Z-6.6
G1 X3.445 Z-6.678
G1 X3.468 Z-6.753
G1 X3.505 Z-6.822
G1 X3.554 Z-6.883
G1 X3.615 Z-6.933
G1 X3.684 Z-6.97
G1 X3.759 Z-6.992
G1 X3.837 Z-7
G1 X4.237 F350.
G2 X4.637 Y-510 I0 J-0.4
G1 Y-580 F400.
G3 X6.637 Y-582 I2 J0
G1 X53.77
G1 X53.892 Y-581.996
G3 X88.747 Y-542.633 I-2.254 J37.109
G3 X56.408 Y-508.017 I-37.109 J-2.254
G3 X56.152 Y-508 I-0.257 J-1.983
G1 X6.637
G3 X4.637 Y-510 I0 J-2
G2 X4.237 Y-510.4 I-0.4 J0 F350.
G1 X3.837
G1 X3.759 Z-6.992
G1 X3.684 Z-6.97
G1 X3.615 Z-6.933
G1 X3.554 Z-6.883
G1 X3.505 Z-6.822
G1 X3.468 Z-6.753
G1 X3.445 Z-6.678
G1 X3.437 Z-6.6
G0 Z5
G0 Y-509.6
G1 Z-2.5 F85.
G1 Z-10.1
G1 X3.445 Z-10.178
G1 X3.468 Z-10.253
G1 X3.505 Z-10.322
G1 X3.554 Z-10.383
G1 X3.615 Z-10.433
G1 X3.684 Z-10.47
G1 X3.759 Z-10.492
G1 X3.837 Z-10.5
G1 X4.237 F350.
G2 X4.637 Y-510 I0 J-0.4
G1 Y-580 F400.
G3 X6.637 Y-582 I2 J0
G1 X53.77
G1 X53.892 Y-581.996
G3 X88.747 Y-542.633 I-2.254 J37.109
G3 X56.408 Y-508.017 I-37.109 J-2.254
G3 X56.152 Y-508 I-0.257 J-1.983
G1 X6.637
G3 X4.637 Y-510 I0 J-2
G2 X4.237 Y-510.4 I-0.4 J0 F350.
G1 X3.837
G1 X3.759 Z-10.492
G1 X3.684 Z-10.47
G1 X3.615 Z-10.433
G1 X3.554 Z-10.383
G1 X3.505 Z-10.322
G1 X3.468 Z-10.253
G1 X3.445 Z-10.178
G1 X3.437 Z-10.1
G0 Z5
G0 Y-509.6
G1 Z-6 F85.
G1 Z-12.1
G1 X3.445 Z-12.178
G1 X3.468 Z-12.253
G1 X3.505 Z-12.322
G1 X3.554 Z-12.383
G1 X3.615 Z-12.433
G1 X3.684 Z-12.47
G1 X3.759 Z-12.492
G1 X3.837 Z-12.5
G1 X4.237 F350.
G2 X4.637 Y-510 I0 J-0.4
G1 Y-541 F400.
G1 Y-543 Z-10.5
G1 Y-547
G1 Y-549 Z-12.5 F85.
G1 Y-580 F400.
G3 X6.637 Y-582 I2 J0
G1 X53.77
G1 X53.892 Y-581.996
G3 X75.329 Y-573.538 I-2.254 J37.109
G1 X75.769 Y-573.169 Z-11.927
G1 X76.203 Y-572.792 Z-11.354
G1 X76.632 Y-572.409 Z-10.782
G1 X76.84 Y-572.218 Z-10.5
G3 X79.631 Y-569.353 I-25.203 J27.331
G1 X80.006 Y-568.917 Z-11.073 F85.
G1 X80.374 Y-568.475 Z-11.646
G1 X80.735 Y-568.028 Z-12.219
G1 X80.91 Y-567.807 Z-12.5
G3 X82.4 Y-524.01 I-29.272 J22.92 F400.
G1 X82.074 Y-523.537 Z-11.927
G1 X81.74 Y-523.069 Z-11.354
G1 X81.399 Y-522.606 Z-10.782
G1 X81.229 Y-522.381 Z-10.5
G3 X78.64 Y-519.332 I-29.592 J-22.506
G1 X78.241 Y-518.917 Z-11.073 F85.
G1 X77.837 Y-518.509 Z-11.646
G1 X77.426 Y-518.107 Z-12.219
G1 X77.222 Y-517.912 Z-12.5
G3 X56.408 Y-508.017 I-25.584 J-26.975 F400.
G3 X56.152 Y-508 I-0.257 J-1.983
G1 X6.637
G3 X4.637 Y-510 I0 J-2
G2 X4.237 Y-510.4 I-0.4 J0 F350.
G1 X3.837
G1 X3.759 Z-12.492
G1 X3.684 Z-12.47
G1 X3.615 Z-12.433
G1 X3.554 Z-12.383
G1 X3.505 Z-12.322
G1 X3.468 Z-12.253
G1 X3.445 Z-12.178
G1 X3.437 Z-12.1
G0 Z5
G0 X3.531 Y-180.866
G1 Z4.5 F85.
G1 Z-3.1
G1 X3.538 Y-180.863 Z-3.178
G1 X3.559 Y-180.855 Z-3.253
G1 X3.593 Y-180.84 Z-3.322
G1 X3.639 Y-180.821 Z-3.383
G1 X3.695 Y-180.798 Z-3.433
G1 X3.759 Y-180.771 Z-3.47
G1 X3.828 Y-180.742 Z-3.492
G1 X3.9 Y-180.712 Z-3.5
G1 X4.269 Y-180.558 F350.
G2 X4.792 Y-180.772 I0.154 J-0.369
G3 X6.637 Y-182 I1.845 J0.772 F400.
G1 X53.77
G1 X53.892 Y-181.996
G3 X88.747 Y-142.633 I-2.254 J37.109
G3 X56.408 Y-108.017 I-37.109 J-2.254
G3 X56.152 Y-108 I-0.257 J-1.983
G1 X6.637
G3 X4.637 Y-110 I0 J-2
G1 Y-180
G3 X4.792 Y-180.772 I2 J0
G2 X4.793 Y-181.078 I-0.369 J-0.154 F350.
G2 X4.578 Y-181.296 I-0.37 J0.152
G1 X4.209 Y-181.45
G1 X4.137 Y-181.48 Z-3.492
G1 X4.068 Y-181.509 Z-3.47
G1 X4.004 Y-181.536 Z-3.433
G1 X3.948 Y-181.559 Z-3.383
G1 X3.902 Y-181.578 Z-3.322
G1 X3.868 Y-181.593 Z-3.253
G1 X3.847 Y-181.601 Z-3.178
G1 X3.84 Y-181.604 Z-3.1
G0 Z5
G0 X3.531 Y-180.866
G1 Z1 F85.
G1 Z-6.6
G1 X3.538 Y-180.863 Z-6.678
G1 X3.559 Y-180.855 Z-6.753
G1 X3.593 Y-180.84 Z-6.822
G1 X3.639 Y-180.821 Z-6.883
G1 X3.695 Y-180.798 Z-6.933
G1 X3.759 Y-180.771 Z-6.97
G1 X3.828 Y-180.742 Z-6.992
G1 X3.9 Y-180.712 Z-7
G1 X4.269 Y-180.558 F350.
G2 X4.792 Y-180.772 I0.154 J-0.369
G3 X6.637 Y-182 I1.845 J0.772 F400.
G1 X53.77
G1 X53.892 Y-181.996
G3 X88.747 Y-142.633 I-2.254 J37.109
G3 X56.408 Y-108.017 I-37.109 J-2.254
G3 X56.152 Y-108 I-0.257 J-1.983
G1 X6.637
G3 X4.637 Y-110 I0 J-2
G1 Y-180
G3 X4.792 Y-180.772 I2 J0
G2 X4.793 Y-181.078 I-0.369 J-0.154 F350.
G2 X4.578 Y-181.296 I-0.37 J0.152
G1 X4.209 Y-181.45
G1 X4.137 Y-181.48 Z-6.992
G1 X4.068 Y-181.509 Z-6.97
G1 X4.004 Y-181.536 Z-6.933
G1 X3.948 Y-181.559 Z-6.883
G1 X3.902 Y-181.578 Z-6.822
G1 X3.868 Y-181.593 Z-6.753
G1 X3.847 Y-181.601 Z-6.678
G1 X3.84 Y-181.604 Z-6.6
G0 Z5
G0 X3.531 Y-180.866
G1 Z-2.5 F85.
G1 Z-10.1
G1 X3.538 Y-180.863 Z-10.178
G1 X3.559 Y-180.855 Z-10.253
G1 X3.593 Y-180.84 Z-10.322
G1 X3.639 Y-180.821 Z-10.383
G1 X3.695 Y-180.798 Z-10.433
G1 X3.759 Y-180.771 Z-10.47
G1 X3.828 Y-180.742 Z-10.492
G1 X3.9 Y-180.712 Z-10.5
G1 X4.269 Y-180.558 F350.
G2 X4.792 Y-180.772 I0.154 J-0.369
G3 X6.637 Y-182 I1.845 J0.772 F400.
G1 X53.77
G1 X53.892 Y-181.996
G3 X88.747 Y-142.633 I-2.254 J37.109
G3 X56.408 Y-108.017 I-37.109 J-2.254
G3 X56.152 Y-108 I-0.257 J-1.983
G1 X6.637
G3 X4.637 Y-110 I0 J-2
G1 Y-180
G3 X4.792 Y-180.772 I2 J0
G2 X4.793 Y-181.078 I-0.369 J-0.154 F350.
G2 X4.578 Y-181.296 I-0.37 J0.152
G1 X4.209 Y-181.45
G1 X4.137 Y-181.48 Z-10.492
G1 X4.068 Y-181.509 Z-10.47
G1 X4.004 Y-181.536 Z-10.433
G1 X3.948 Y-181.559 Z-10.383
G1 X3.902 Y-181.578 Z-10.322
G1 X3.868 Y-181.593 Z-10.253
G1 X3.847 Y-181.601 Z-10.178
G1 X3.84 Y-181.604 Z-10.1
G0 Z5
G0 X3.531 Y-180.866
G1 Z-6 F85.
G1 Z-12.1
G1 X3.538 Y-180.863 Z-12.178
G1 X3.559 Y-180.855 Z-12.253
G1 X3.593 Y-180.84 Z-12.322
G1 X3.639 Y-180.821 Z-12.383
G1 X3.695 Y-180.798 Z-12.433
G1 X3.759 Y-180.771 Z-12.47
G1 X3.828 Y-180.742 Z-12.492
G1 X3.9 Y-180.712 Z-12.5
G1 X4.269 Y-180.558 F350.
G2 X4.792 Y-180.772 I0.154 J-0.369
G3 X6.637 Y-182 I1.845 J0.772 F400.
G1 X53.77
G1 X53.892 Y-181.996
G3 X75.329 Y-173.538 I-2.254 J37.109
G1 X75.769 Y-173.169 Z-11.927
G1 X76.203 Y-172.792 Z-11.354
G1 X76.632 Y-172.409 Z-10.782
G1 X76.84 Y-172.218 Z-10.5
G3 X79.631 Y-169.353 I-25.203 J27.331
G1 X80.006 Y-168.917 Z-11.073 F85.
G1 X80.374 Y-168.475 Z-11.646
G1 X80.735 Y-168.028 Z-12.219
G1 X80.91 Y-167.807 Z-12.5
G3 X82.4 Y-124.01 I-29.272 J22.92 F400.
G1 X82.074 Y-123.537 Z-11.927
G1 X81.74 Y-123.069 Z-11.354
G1 X81.399 Y-122.606 Z-10.782
G1 X81.229 Y-122.381 Z-10.5
G3 X78.64 Y-119.332 I-29.592 J-22.506
G1 X78.241 Y-118.917 Z-11.073 F85.
G1 X77.837 Y-118.509 Z-11.646
G1 X77.426 Y-118.107 Z-12.219
G1 X77.222 Y-117.912 Z-12.5
G3 X56.408 Y-108.017 I-25.584 J-26.975 F400.
G3 X56.152 Y-108 I-0.257 J-1.983
G1 X6.637
G3 X4.637 Y-110 I0 J-2
G1 Y-141
G1 Y-143 Z-10.5
G1 Y-147
G1 Y-149 Z-12.5 F85.
G1 Y-180 F400.
G3 X4.792 Y-180.772 I2 J0
G2 X4.793 Y-181.078 I-0.369 J-0.154 F350.
G2 X4.578 Y-181.296 I-0.37 J0.152
G1 X4.209 Y-181.45
G1 X4.137 Y-181.48 Z-12.492
G1 X4.068 Y-181.509 Z-12.47
G1 X4.004 Y-181.536 Z-12.433
G1 X3.948 Y-181.559 Z-12.383
G1 X3.902 Y-181.578 Z-12.322
G1 X3.868 Y-181.593 Z-12.253
G1 X3.847 Y-181.601 Z-12.178
G1 X3.84 Y-181.604 Z-12.1
G0 Z5
G0 X3.531 Y-100.866
G1 Z4.5 F85.
G1 Z-3.1
G1 X3.538 Y-100.863 Z-3.178
G1 X3.559 Y-100.855 Z-3.253
G1 X3.593 Y-100.84 Z-3.322
G1 X3.639 Y-100.821 Z-3.383
G1 X3.695 Y-100.798 Z-3.433
G1 X3.759 Y-100.771 Z-3.47
G1 X3.828 Y-100.742 Z-3.492
G1 X3.9 Y-100.712 Z-3.5
G1 X4.269 Y-100.558 F350.
G2 X4.575 Y-100.556 I0.154 J-0.369
G2 X4.792 Y-100.772 I-0.152 J-0.37
G3 X6.637 Y-102 I1.845 J0.772 F400.
G1 X53.77
G1 X53.892 Y-101.996
G3 X88.747 Y-62.633 I-2.254 J37.109
G3 X56.408 Y-28.017 I-37.109 J-2.254
G3 X56.152 Y-28 I-0.257 J-1.983
G1 X6.637
G3 X4.637 Y-30 I0 J-2
G1 Y-100
G3 X4.792 Y-100.772 I2 J0
G2 X4.578 Y-101.296 I-0.369 J-0.154 F350.
G1 X4.209 Y-101.45
G1 X4.137 Y-101.48 Z-3.492
G1 X4.068 Y-101.509 Z-3.47
G1 X4.004 Y-101.536 Z-3.433
G1 X3.948 Y-101.559 Z-3.383
G1 X3.902 Y-101.578 Z-3.322
G1 X3.868 Y-101.593 Z-3.253
G1 X3.847 Y-101.601 Z-3.178
G1 X3.84 Y-101.604 Z-3.1
G0 Z5
G0 X3.531 Y-100.866
G1 Z1 F85.
G1 Z-6.6
G1 X3.538 Y-100.863 Z-6.678
G1 X3.559 Y-100.855 Z-6.753
G1 X3.593 Y-100.84 Z-6.822
G1 X3.639 Y-100.821 Z-6.883
G1 X3.695 Y-100.798 Z-6.933
G1 X3.759 Y-100.771 Z-6.97
G1 X3.828 Y-100.742 Z-6.992
G1 X3.9 Y-100.712 Z-7
G1 X4.269 Y-100.558 F350.
G2 X4.575 Y-100.556 I0.154 J-0.369
G2 X4.792 Y-100.772 I-0.152 J-0.37
G3 X6.637 Y-102 I1.845 J0.772 F400.
G1 X53.77
G1 X53.892 Y-101.996
G3 X88.747 Y-62.633 I-2.254 J37.109
G3 X56.408 Y-28.017 I-37.109 J-2.254
G3 X56.152 Y-28 I-0.257 J-1.983
G1 X6.637
G3 X4.637 Y-30 I0 J-2
G1 Y-100
G3 X4.792 Y-100.772 I2 J0
G2 X4.578 Y-101.296 I-0.369 J-0.154 F350.
G1 X4.209 Y-101.45
G1 X4.137 Y-101.48 Z-6.992
G1 X4.068 Y-101.509 Z-6.97
G1 X4.004 Y-101.536 Z-6.933
G1 X3.948 Y-101.559 Z-6.883
G1 X3.902 Y-101.578 Z-6.822
G1 X3.868 Y-101.593 Z-6.753
G1 X3.847 Y-101.601 Z-6.678
G1 X3.84 Y-101.604 Z-6.6
G0 Z5
G0 X3.531 Y-100.866
G1 Z-2.5 F85.
G1 Z-10.1
G1 X3.538 Y-100.863 Z-10.178
G1 X3.559 Y-100.855 Z-10.253
G1 X3.593 Y-100.84 Z-10.322
G1 X3.639 Y-100.821 Z-10.383
G1 X3.695 Y-100.798 Z-10.433
G1 X3.759 Y-100.771 Z-10.47
G1 X3.828 Y-100.742 Z-10.492
G1 X3.9 Y-100.712 Z-10.5
G1 X4.269 Y-100.558 F350.
G2 X4.575 Y-100.556 I0.154 J-0.369
G2 X4.792 Y-100.772 I-0.152 J-0.37
G3 X6.637 Y-102 I1.845 J0.772 F400.
G1 X53.77
G1 X53.892 Y-101.996
G3 X88.747 Y-62.633 I-2.254 J37.109
G3 X56.408 Y-28.017 I-37.109 J-2.254
G3 X56.152 Y-28 I-0.257 J-1.983
G1 X6.637
G3 X4.637 Y-30 I0 J-2
G1 Y-100
G3 X4.792 Y-100.772 I2 J0
G2 X4.578 Y-101.296 I-0.369 J-0.154 F350.
G1 X4.209 Y-101.45
G1 X4.137 Y-101.48 Z-10.492
G1 X4.068 Y-101.509 Z-10.47
G1 X4.004 Y-101.536 Z-10.433
G1 X3.948 Y-101.559 Z-10.383
G1 X3.902 Y-101.578 Z-10.322
G1 X3.868 Y-101.593 Z-10.253
G1 X3.847 Y-101.601 Z-10.178
G1 X3.84 Y-101.604 Z-10.1
G0 Z5
G0 X3.531 Y-100.866
G1 Z-6 F85.
G1 Z-12.1
G1 X3.538 Y-100.863 Z-12.178
G1 X3.559 Y-100.855 Z-12.253
G1 X3.593 Y-100.84 Z-12.322
G1 X3.639 Y-100.821 Z-12.383
G1 X3.695 Y-100.798 Z-12.433
G1 X3.759 Y-100.771 Z-12.47
G1 X3.828 Y-100.742 Z-12.492
G1 X3.9 Y-100.712 Z-12.5
G1 X4.269 Y-100.558 F350.
G2 X4.575 Y-100.556 I0.154 J-0.369
G2 X4.792 Y-100.772 I-0.152 J-0.37
G3 X6.637 Y-102 I1.845 J0.772 F400.
G1 X53.77
G1 X53.892 Y-101.996
G3 X75.329 Y-93.538 I-2.254 J37.109
G1 X75.769 Y-93.168 Z-11.927
G1 X76.204 Y-92.792 Z-11.354
G1 X76.632 Y-92.409 Z-10.782
G1 X76.84 Y-92.218 Z-10.5
G3 X79.631 Y-89.352 I-25.203 J27.331
G1 X80.006 Y-88.917 Z-11.073 F85.
G1 X80.374 Y-88.475 Z-11.646
G1 X80.735 Y-88.028 Z-12.219
G1 X80.91 Y-87.806 Z-12.5
G3 X82.4 Y-44.01 I-29.273 J22.919 F400.
G1 X82.074 Y-43.537 Z-11.927
G1 X81.74 Y-43.069 Z-11.354
G1 X81.399 Y-42.606 Z-10.782
G1 X81.229 Y-42.381 Z-10.5
G3 X78.64 Y-39.332 I-29.592 J-22.506
G1 X78.241 Y-38.917 Z-11.073 F85.
G1 X77.837 Y-38.509 Z-11.646
G1 X77.426 Y-38.107 Z-12.219
G1 X77.222 Y-37.912 Z-12.5
G3 X56.408 Y-28.017 I-25.584 J-26.975 F400.
G3 X56.152 Y-28 I-0.257 J-1.983
G1 X6.637
G3 X4.637 Y-30 I0 J-2
G1 Y-61
G1 Y-63 Z-10.5
G1 Y-67
G1 Y-69 Z-12.5 F85.
G1 Y-100 F400.
G3 X4.792 Y-100.772 I2 J0
G2 X4.578 Y-101.296 I-0.369 J-0.154 F350.
G1 X4.209 Y-101.45
G1 X4.137 Y-101.48 Z-12.492
G1 X4.068 Y-101.509 Z-12.47
G1 X4.004 Y-101.536 Z-12.433
G1 X3.948 Y-101.559 Z-12.383
G1 X3.902 Y-101.578 Z-12.322
G1 X3.868 Y-101.593 Z-12.253
G1 X3.847 Y-101.601 Z-12.178
G1 X3.84 Y-101.604 Z-12.1
G0 Z5
G0 X3.531 Y-20.866
G1 Z4.5 F85.
G1 Z-3.1
G1 X3.538 Y-20.863 Z-3.178
G1 X3.559 Y-20.855 Z-3.253
G1 X3.593 Y-20.84 Z-3.322
G1 X3.639 Y-20.821 Z-3.383
G1 X3.695 Y-20.798 Z-3.433
G1 X3.759 Y-20.771 Z-3.47
G1 X3.828 Y-20.742 Z-3.492
G1 X3.9 Y-20.712 Z-3.5
G1 X4.269 Y-20.558 F350.
G2 X4.792 Y-20.772 I0.154 J-0.369
G3 X6.637 Y-22 I1.845 J0.772 F400.
G1 X53.77
G1 X53.892 Y-21.996
G3 X88.747 Y17.367 I-2.254 J37.109
G3 X56.408 Y51.983 I-37.109 J-2.254
G3 X56.152 Y52 I-0.257 J-1.983
G1 X6.637
G3 X4.637 Y50 I0 J-2
G1 Y-20
G3 X4.792 Y-20.772 I2 J0
G2 X4.793 Y-21.078 I-0.369 J-0.154 F350.
G2 X4.578 Y-21.296 I-0.37 J0.152
G1 X4.209 Y-21.45
G1 X4.137 Y-21.48 Z-3.492
G1 X4.068 Y-21.509 Z-3.47
G1 X4.004 Y-21.536 Z-3.433
G1 X3.948 Y-21.559 Z-3.383
G1 X3.902 Y-21.578 Z-3.322
G1 X3.868 Y-21.593 Z-3.253
G1 X3.847 Y-21.601 Z-3.178
G1 X3.84 Y-21.604 Z-3.1
G0 Z5
G0 X3.531 Y-20.866
G1 Z1 F85.
G1 Z-6.6
G1 X3.538 Y-20.863 Z-6.678
G1 X3.559 Y-20.855 Z-6.753
G1 X3.593 Y-20.84 Z-6.822
G1 X3.639 Y-20.821 Z-6.883
G1 X3.695 Y-20.798 Z-6.933
G1 X3.759 Y-20.771 Z-6.97
G1 X3.828 Y-20.742 Z-6.992
G1 X3.9 Y-20.712 Z-7
G1 X4.269 Y-20.558 F350.
G2 X4.792 Y-20.772 I0.154 J-0.369
G3 X6.637 Y-22 I1.845 J0.772 F400.
G1 X53.77
G1 X53.892 Y-21.996
G3 X88.747 Y17.367 I-2.254 J37.109
G3 X56.408 Y51.983 I-37.109 J-2.254
G3 X56.152 Y52 I-0.257 J-1.983
G1 X6.637
G3 X4.637 Y50 I0 J-2
G1 Y-20
G3 X4.792 Y-20.772 I2 J0
G2 X4.793 Y-21.078 I-0.369 J-0.154 F350.
G2 X4.578 Y-21.296 I-0.37 J0.152
G1 X4.209 Y-21.45
G1 X4.137 Y-21.48 Z-6.992
G1 X4.068 Y-21.509 Z-6.97
G1 X4.004 Y-21.536 Z-6.933
G1 X3.948 Y-21.559 Z-6.883
G1 X3.902 Y-21.578 Z-6.822
G1 X3.868 Y-21.593 Z-6.753
G1 X3.847 Y-21.601 Z-6.678
G1 X3.84 Y-21.604 Z-6.6
G0 Z5
G0 X3.531 Y-20.866
G1 Z-2.5 F85.
G1 Z-10.1
G1 X3.538 Y-20.863 Z-10.178
G1 X3.559 Y-20.855 Z-10.253
G1 X3.593 Y-20.84 Z-10.322
G1 X3.639 Y-20.821 Z-10.383
G1 X3.695 Y-20.798 Z-10.433
G1 X3.759 Y-20.771 Z-10.47
G1 X3.828 Y-20.742 Z-10.492
G1 X3.9 Y-20.712 Z-10.5
G1 X4.269 Y-20.558 F350.
G2 X4.792 Y-20.772 I0.154 J-0.369
G3 X6.637 Y-22 I1.845 J0.772 F400.
G1 X53.77
G1 X53.892 Y-21.996
G3 X88.747 Y17.367 I-2.254 J37.109
G3 X56.408 Y51.983 I-37.109 J-2.254
G3 X56.152 Y52 I-0.257 J-1.983
G1 X6.637
G3 X4.637 Y50 I0 J-2
G1 Y-20
G3 X4.792 Y-20.772 I2 J0
G2 X4.793 Y-21.078 I-0.369 J-0.154 F350.
G2 X4.578 Y-21.296 I-0.37 J0.152
G1 X4.209 Y-21.45
G1 X4.137 Y-21.48 Z-10.492
G1 X4.068 Y-21.509 Z-10.47
G1 X4.004 Y-21.536 Z-10.433
G1 X3.948 Y-21.559 Z-10.383
G1 X3.902 Y-21.578 Z-10.322
G1 X3.868 Y-21.593 Z-10.253
G1 X3.847 Y-21.601 Z-10.178
G1 X3.84 Y-21.604 Z-10.1
G0 Z5
G0 X3.531 Y-20.866
G1 Z-6 F85.
G1 Z-12.1
G1 X3.538 Y-20.863 Z-12.178
G1 X3.559 Y-20.855 Z-12.253
G1 X3.593 Y-20.84 Z-12.322
G1 X3.639 Y-20.821 Z-12.383
G1 X3.695 Y-20.798 Z-12.433
G1 X3.759 Y-20.771 Z-12.47
G1 X3.828 Y-20.742 Z-12.492
G1 X3.9 Y-20.712 Z-12.5
G1 X4.269 Y-20.558 F350.
G2 X4.792 Y-20.772 I0.154 J-0.369
G3 X6.637 Y-22 I1.845 J0.772 F400.
G1 X53.77
G1 X53.892 Y-21.996
G3 X75.329 Y-13.538 I-2.254 J37.109
G1 X75.769 Y-13.168 Z-11.927
G1 X76.204 Y-12.792 Z-11.354
G1 X76.632 Y-12.409 Z-10.782
G1 X76.84 Y-12.218 Z-10.5
G3 X79.631 Y-9.352 I-25.203 J27.331
G1 X80.006 Y-8.917 Z-11.073 F85.
G1 X80.374 Y-8.475 Z-11.646
G1 X80.735 Y-8.028 Z-12.219
G1 X80.91 Y-7.806 Z-12.5
G3 X82.4 Y35.99 I-29.273 J22.919 F400.
G1 X82.074 Y36.463 Z-11.927
G1 X81.74 Y36.931 Z-11.354
G1 X81.399 Y37.394 Z-10.782
G1 X81.229 Y37.619 Z-10.5
G3 X78.64 Y40.668 I-29.592 J-22.506
G1 X78.241 Y41.083 Z-11.073 F85.
G1 X77.837 Y41.491 Z-11.646
G1 X77.426 Y41.893 Z-12.219
G1 X77.222 Y42.088 Z-12.5
G3 X56.408 Y51.983 I-25.584 J-26.975 F400.
G3 X56.152 Y52 I-0.257 J-1.983
G1 X6.637
G3 X4.637 Y50 I0 J-2
G1 Y19
G1 Y17 Z-10.5
G1 Y13
G1 Y11 Z-12.5 F85.
G1 Y-20 F400.
G3 X4.792 Y-20.772 I2 J0
G2 X4.793 Y-21.078 I-0.369 J-0.154 F350.
G2 X4.578 Y-21.296 I-0.37 J0.152
G1 X4.209 Y-21.45
G1 X4.137 Y-21.48 Z-12.492
G1 X4.068 Y-21.509 Z-12.47
G1 X4.004 Y-21.536 Z-12.433
G1 X3.948 Y-21.559 Z-12.383
G1 X3.902 Y-21.578 Z-12.322
G1 X3.868 Y-21.593 Z-12.253
G1 X3.847 Y-21.601 Z-12.178
G1 X3.84 Y-21.604 Z-12.1
G0 Z15

G0 Z15
M5
M30
