(1001)
(T1  D=4 CR=0 - ZMIN=-5 - FLAT END MILL)
G0 G40 G90 G17
G21

(DRILL6 2)
T1 M6
M3 S15000
G0 X-53.261 Y29.255
G0 Z15
G0 Z5
G1 Z-5 F85.
G0 Z5
G0 Y-138.745
G1 Z-5 F85.
G0 Z5
G0 Y-310.245
G1 Z-5 F85.
G0 Z5
G0 Z15

(2D POCKET5)
G0 X-94.663 Y0.489
G0 Z10
G0 Z4.5
G1 Z-3.1 F350.
G1 X-94.656 Z-3.178
G1 X-94.633 Z-3.253
G1 X-94.596 Z-3.322
G1 X-94.546 Z-3.383
G1 X-94.486 Z-3.433
G1 X-94.416 Z-3.47
G1 X-94.341 Z-3.492
G1 X-94.263 Z-3.5
G1 X-90.145
G1 X-16.376 F400.
G3 X-16.235 Y0.547 I0 J0.2
G3 X-16.176 Y0.689 I-0.141 J0.141
G1 X-16.177 Y1.821
G3 X-16.377 Y2.021 I-0.2 J0
G1 X-90.146
G3 X-90.346 Y1.821 I0 J-0.2
G1 X-90.347 Y-2.545
G3 X-90.288 Y-2.686 I0.2 J0
G3 X-90.147 Y-2.745 I0.141 J0.141
G1 X-16.368
G3 X-16.226 Y-2.686 I0 J0.2
G3 X-16.168 Y-2.545 I-0.141 J0.141
G1 X-16.176 Y5.055
G3 X-16.376 Y5.255 I-0.2 J0
G1 X-90.154
G3 X-90.351 Y5.092 I0 J-0.2
G1 X-91.173 Y0.726
G3 X-91.013 Y0.492 I0.197 J-0.037
G3 X-90.976 Y0.489 I0.037 J0.197
G1 X-90.898 Z-3.508 F350.
G1 X-90.823 Z-3.53
G1 X-90.754 Z-3.567
G1 X-90.694 Z-3.617
G1 X-90.644 Z-3.678
G1 X-90.607 Z-3.747
G1 X-90.584 Z-3.822
G1 X-90.576 Z-3.9
G1 Z-4.6
G1 X-90.569 Z-4.678
G1 X-90.546 Z-4.753
G1 X-90.509 Z-4.822
G1 X-90.459 Z-4.883
G1 X-90.399 Z-4.933
G1 X-90.33 Z-4.97
G1 X-90.255 Z-4.992
G1 X-90.176 Z-5
G1 X-90.145
G1 X-16.376 F400.
G3 X-16.235 Y0.547 I0 J0.2
G3 X-16.176 Y0.689 I-0.141 J0.141
G1 X-16.177 Y1.821
G3 X-16.377 Y2.021 I-0.2 J0
G1 X-90.146
G3 X-90.346 Y1.821 I0 J-0.2
G1 X-90.347 Y-2.545
G3 X-90.288 Y-2.686 I0.2 J0
G3 X-90.147 Y-2.745 I0.141 J0.141
G1 X-16.368
G3 X-16.226 Y-2.686 I0 J0.2
G3 X-16.168 Y-2.545 I-0.141 J0.141
G1 X-16.176 Y5.055
G3 X-16.376 Y5.255 I-0.2 J0
G1 X-90.154
G1 X-90.217 Y5.25 F350.
G1 X-92.192 Y4.937
G1 X-92.269 Y4.925 Z-4.992
G1 X-92.343 Y4.913 Z-4.97
G1 X-92.411 Y4.902 Z-4.933
G1 X-92.471 Y4.893 Z-4.883
G1 X-92.52 Y4.885 Z-4.822
G1 X-92.557 Y4.879 Z-4.753
G1 X-92.579 Y4.876 Z-4.678
G1 X-92.587 Y4.875 Z-4.6
G0 Z10
G0 X-94.665 Y62.966
G0 Z4.5
G1 Z-3.1 F350.
G1 X-94.658 Z-3.178
G1 X-94.635 Z-3.253
G1 X-94.598 Z-3.322
G1 X-94.548 Z-3.383
G1 X-94.488 Z-3.433
G1 X-94.418 Z-3.47
G1 X-94.343 Z-3.492
G1 X-94.265 Z-3.5
G1 X-90.147 Y62.967
G1 X-18.261 Y62.992 F400.
G1 X-16.368 Y62.99
G1 X-16.352 F350.
G1 X-16.274 Z-3.492
G1 X-16.199 Z-3.47
G1 X-16.13 Z-3.433
G1 X-16.07 Z-3.383
G1 X-16.02 Z-3.322
G1 X-15.983 Z-3.253
G1 X-15.96 Z-3.178
G1 X-15.952 Z-3.1
G0 Z5
G0 X-94.665 Y59.718
G0 Z4.5
G1 Z-3.1 F350.
G1 X-94.658 Z-3.178
G1 X-94.635 Z-3.253
G1 X-94.598 Z-3.322
G1 X-94.548 Z-3.383
G1 X-94.488 Z-3.433
G1 X-94.418 Z-3.47
G1 X-94.343 Z-3.492
G1 X-94.265 Z-3.5
G1 X-90.156
G1 X-16.367 F400.
G1 X-16.352 F350.
G1 X-16.274 Z-3.492
G1 X-16.199 Z-3.47
G1 X-16.13 Z-3.433
G1 X-16.069 Z-3.383
G1 X-16.019 Z-3.322
G1 X-15.982 Z-3.253
G1 X-15.959 Z-3.178
G1 X-15.952 Z-3.1
G0 Z5
G0 X-94.663 Y56.489
G0 Z4.5
G1 Z-3.1 F350.
G1 X-94.656 Z-3.178
G1 X-94.633 Z-3.253
G1 X-94.596 Z-3.322
G1 X-94.546 Z-3.383
G1 X-94.486 Z-3.433
G1 X-94.416 Z-3.47
G1 X-94.341 Z-3.492
G1 X-94.263 Z-3.5
G1 X-90.145
G1 X-16.376 F400.
G1 X-14.376 F350.
G1 X-14.298 Z-3.492
G1 X-14.223 Z-3.47
G1 X-14.154 Z-3.433
G1 X-14.093 Z-3.383
G1 X-14.044 Z-3.322
G1 X-14.007 Z-3.253
G1 X-13.984 Z-3.178
G1 X-13.976 Z-3.1
G0 Z5
G0 X-94.662 Y53.965
G0 Z4.5
G1 Z-3.14 F350.
G1 X-94.655 Y53.964 Z-3.21
G1 X-94.635 Y53.961 Z-3.278
G1 X-94.602 Y53.956 Z-3.34
G1 X-94.558 Y53.949 Z-3.395
G1 X-94.504 Y53.94 Z-3.439
G1 X-94.443 Y53.93 Z-3.473
G1 X-94.376 Y53.92 Z-3.493
G1 X-94.307 Y53.909 Z-3.5
G1 X-90.209 Y53.26
G1 X-90.147 Y53.255
G1 X-16.368 F400.
G1 X-16.305 Y53.26 F350.
G1 X-14.33 Y53.573
G1 X-14.253 Y53.585 Z-3.492
G1 X-14.179 Y53.597 Z-3.47
G1 X-14.111 Y53.608 Z-3.433
G1 X-14.051 Y53.617 Z-3.383
G1 X-14.002 Y53.625 Z-3.322
G1 X-13.965 Y53.631 Z-3.253
G1 X-13.943 Y53.634 Z-3.178
G1 X-13.935 Y53.635 Z-3.1
G0 Z5
G0 X-94.665 Y62.966
G0 Z4.5
G1 Z-4.6 F350.
G1 X-94.658 Z-4.678
G1 X-94.635 Z-4.753
G1 X-94.598 Z-4.822
G1 X-94.548 Z-4.883
G1 X-94.488 Z-4.933
G1 X-94.418 Z-4.97
G1 X-94.343 Z-4.992
G1 X-94.265 Z-5
G1 X-90.147 Y62.967
G1 X-18.261 Y62.992 F400.
G1 X-16.368 Y62.99
G1 X-16.352 F350.
G1 X-16.274 Z-4.992
G1 X-16.199 Z-4.97
G1 X-16.13 Z-4.933
G1 X-16.07 Z-4.883
G1 X-16.02 Z-4.822
G1 X-15.983 Z-4.753
G1 X-15.96 Z-4.678
G1 X-15.952 Z-4.6
G0 Z5
G0 X-94.665 Y59.718
G0 Z4.5
G1 Z-4.6 F350.
G1 X-94.658 Z-4.678
G1 X-94.635 Z-4.753
G1 X-94.598 Z-4.822
G1 X-94.548 Z-4.883
G1 X-94.488 Z-4.933
G1 X-94.418 Z-4.97
G1 X-94.343 Z-4.992
G1 X-94.265 Z-5
G1 X-90.156
G1 X-16.367 F400.
G1 X-16.352 F350.
G1 X-16.274 Z-4.992
G1 X-16.199 Z-4.97
G1 X-16.13 Z-4.933
G1 X-16.069 Z-4.883
G1 X-16.019 Z-4.822
G1 X-15.982 Z-4.753
G1 X-15.959 Z-4.678
G1 X-15.952 Z-4.6
G0 Z5
G0 X-94.663 Y56.489
G0 Z4.5
G1 Z-4.6 F350.
G1 X-94.656 Z-4.678
G1 X-94.633 Z-4.753
G1 X-94.596 Z-4.822
G1 X-94.546 Z-4.883
G1 X-94.486 Z-4.933
G1 X-94.416 Z-4.97
G1 X-94.341 Z-4.992
G1 X-94.263 Z-5
G1 X-90.145
G1 X-16.376 F400.
G1 X-14.376 F350.
G1 X-14.298 Z-4.992
G1 X-14.223 Z-4.97
G1 X-14.154 Z-4.933
G1 X-14.093 Z-4.883
G1 X-14.044 Z-4.822
G1 X-14.007 Z-4.753
G1 X-13.984 Z-4.678
G1 X-13.976 Z-4.6
G0 Z5
G0 X-94.662 Y53.965
G0 Z4.5
G1 Z-4.64 F350.
G1 X-94.655 Y53.964 Z-4.71
G1 X-94.635 Y53.961 Z-4.778
G1 X-94.602 Y53.956 Z-4.84
G1 X-94.558 Y53.949 Z-4.895
G1 X-94.504 Y53.94 Z-4.939
G1 X-94.443 Y53.93 Z-4.973
G1 X-94.376 Y53.92 Z-4.993
G1 X-94.307 Y53.909 Z-5
G1 X-90.209 Y53.26
G1 X-90.147 Y53.255
G1 X-16.368 F400.
G1 X-16.305 Y53.26 F350.
G1 X-14.33 Y53.573
G1 X-14.253 Y53.585 Z-4.992
G1 X-14.179 Y53.597 Z-4.97
G1 X-14.111 Y53.608 Z-4.933
G1 X-14.051 Y53.617 Z-4.883
G1 X-14.002 Y53.625 Z-4.822
G1 X-13.965 Y53.631 Z-4.753
G1 X-13.943 Y53.634 Z-4.678
G1 X-13.935 Y53.635 Z-4.6
G0 Z10
G0 X-94.663 Y-55.511
G0 Z4.5
G1 Z-3.1 F350.
G1 X-94.656 Z-3.178
G1 X-94.633 Z-3.253
G1 X-94.596 Z-3.322
G1 X-94.546 Z-3.383
G1 X-94.486 Z-3.433
G1 X-94.416 Z-3.47
G1 X-94.341 Z-3.492
G1 X-94.263 Z-3.5
G1 X-90.145
G1 X-16.376 F400.
G3 X-16.235 Y-55.453 I0 J0.2
G3 X-16.176 Y-55.311 I-0.141 J0.141
G1 X-16.177 Y-54.179
G3 X-16.377 Y-53.979 I-0.2 J0
G1 X-90.146
G3 X-90.346 Y-54.179 I0 J-0.2
G1 X-90.347 Y-58.545
G3 X-90.288 Y-58.686 I0.2 J0
G3 X-90.147 Y-58.745 I0.141 J0.141
G1 X-16.368
G3 X-16.226 Y-58.686 I0 J0.2
G3 X-16.168 Y-58.545 I-0.141 J0.141
G1 X-16.176 Y-50.945
G3 X-16.376 Y-50.745 I-0.2 J0
G1 X-90.154
G3 X-90.351 Y-50.908 I0 J-0.2
G1 X-91.173 Y-55.274
G3 X-91.013 Y-55.508 I0.197 J-0.037
G3 X-90.976 Y-55.511 I0.037 J0.197
G1 X-90.898 Z-3.508 F350.
G1 X-90.823 Z-3.53
G1 X-90.754 Z-3.567
G1 X-90.694 Z-3.617
G1 X-90.644 Z-3.678
G1 X-90.607 Z-3.747
G1 X-90.584 Z-3.822
G1 X-90.576 Z-3.9
G1 Z-4.6
G1 X-90.569 Z-4.678
G1 X-90.546 Z-4.753
G1 X-90.509 Z-4.822
G1 X-90.459 Z-4.883
G1 X-90.399 Z-4.933
G1 X-90.33 Z-4.97
G1 X-90.255 Z-4.992
G1 X-90.176 Z-5
G1 X-90.145
G1 X-16.376 F400.
G3 X-16.235 Y-55.453 I0 J0.2
G3 X-16.176 Y-55.311 I-0.141 J0.141
G1 X-16.177 Y-54.179
G3 X-16.377 Y-53.979 I-0.2 J0
G1 X-90.146
G3 X-90.346 Y-54.179 I0 J-0.2
G1 X-90.347 Y-58.545
G3 X-90.288 Y-58.686 I0.2 J0
G3 X-90.147 Y-58.745 I0.141 J0.141
G1 X-16.368
G3 X-16.226 Y-58.686 I0 J0.2
G3 X-16.168 Y-58.545 I-0.141 J0.141
G1 X-16.176 Y-50.945
G3 X-16.376 Y-50.745 I-0.2 J0
G1 X-90.154
G1 X-90.217 Y-50.75 F350.
G1 X-92.192 Y-51.063
G1 X-92.269 Y-51.075 Z-4.992
G1 X-92.343 Y-51.087 Z-4.97
G1 X-92.411 Y-51.098 Z-4.933
G1 X-92.471 Y-51.107 Z-4.883
G1 X-92.52 Y-51.115 Z-4.822
G1 X-92.557 Y-51.121 Z-4.753
G1 X-92.579 Y-51.124 Z-4.678
G1 X-92.587 Y-51.125 Z-4.6
G0 Z10
G0 X-94.663 Y-111.511
G0 Z4.5
G1 Z-3.1 F350.
G1 X-94.656 Z-3.178
G1 X-94.633 Z-3.253
G1 X-94.596 Z-3.322
G1 X-94.546 Z-3.383
G1 X-94.486 Z-3.433
G1 X-94.416 Z-3.47
G1 X-94.341 Z-3.492
G1 X-94.263 Z-3.5
G1 X-90.145
G1 X-16.376 F400.
G3 X-16.235 Y-111.453 I0 J0.2
G3 X-16.176 Y-111.311 I-0.141 J0.141
G1 X-16.177 Y-110.179
G3 X-16.377 Y-109.979 I-0.2 J0
G1 X-90.146
G3 X-90.346 Y-110.179 I0 J-0.2
G1 X-90.347 Y-114.545
G3 X-90.288 Y-114.686 I0.2 J0
G3 X-90.147 Y-114.745 I0.141 J0.141
G1 X-16.368
G3 X-16.226 Y-114.686 I0 J0.2
G3 X-16.168 Y-114.545 I-0.141 J0.141
G1 X-16.176 Y-106.945
G3 X-16.376 Y-106.745 I-0.2 J0
G1 X-90.154
G3 X-90.351 Y-106.908 I0 J-0.2
G1 X-91.173 Y-111.274
G3 X-91.013 Y-111.508 I0.197 J-0.037
G3 X-90.976 Y-111.511 I0.037 J0.197
G1 X-90.898 Z-3.508 F350.
G1 X-90.823 Z-3.53
G1 X-90.754 Z-3.567
G1 X-90.694 Z-3.617
G1 X-90.644 Z-3.678
G1 X-90.607 Z-3.747
G1 X-90.584 Z-3.822
G1 X-90.576 Z-3.9
G1 Z-4.6
G1 X-90.569 Z-4.678
G1 X-90.546 Z-4.753
G1 X-90.509 Z-4.822
G1 X-90.459 Z-4.883
G1 X-90.399 Z-4.933
G1 X-90.33 Z-4.97
G1 X-90.255 Z-4.992
G1 X-90.176 Z-5
G1 X-90.145
G1 X-16.376 F400.
G3 X-16.235 Y-111.453 I0 J0.2
G3 X-16.176 Y-111.311 I-0.141 J0.141
G1 X-16.177 Y-110.179
G3 X-16.377 Y-109.979 I-0.2 J0
G1 X-90.146
G3 X-90.346 Y-110.179 I0 J-0.2
G1 X-90.347 Y-114.545
G3 X-90.288 Y-114.686 I0.2 J0
G3 X-90.147 Y-114.745 I0.141 J0.141
G1 X-16.368
G3 X-16.226 Y-114.686 I0 J0.2
G3 X-16.168 Y-114.545 I-0.141 J0.141
G1 X-16.176 Y-106.945
G3 X-16.376 Y-106.745 I-0.2 J0
G1 X-90.154
G1 X-90.217 Y-106.75 F350.
G1 X-92.192 Y-107.063
G1 X-92.269 Y-107.075 Z-4.992
G1 X-92.343 Y-107.087 Z-4.97
G1 X-92.411 Y-107.098 Z-4.933
G1 X-92.471 Y-107.107 Z-4.883
G1 X-92.52 Y-107.115 Z-4.822
G1 X-92.557 Y-107.121 Z-4.753
G1 X-92.579 Y-107.124 Z-4.678
G1 X-92.587 Y-107.125 Z-4.6
G0 Z10
G0 X-94.663 Y-167.491
G0 Z4.5
G1 Z-3.1 F350.
G1 X-94.656 Z-3.178
G1 X-94.633 Z-3.253
G1 X-94.596 Z-3.322
G1 X-94.546 Z-3.383
G1 X-94.486 Z-3.433
G1 X-94.416 Z-3.47
G1 X-94.341 Z-3.492
G1 X-94.263 Z-3.5
G1 X-90.145 Y-167.489
G1 X-18.261 Y-167.466 F400.
G1 X-16.368 Y-167.467
G3 X-16.226 Y-167.408 I0 J0.2
G3 X-16.168 Y-167.266 I-0.142 J0.141
G1 X-16.177 Y-166.177
G3 X-16.377 Y-165.979 I-0.2 J-0.002
G1 X-90.146
G3 X-90.346 Y-166.179 I0 J-0.2
G1 X-90.347 Y-170.545
G3 X-90.288 Y-170.686 I0.2 J0
G3 X-90.147 Y-170.745 I0.141 J0.141
G1 X-16.368
G3 X-16.226 Y-170.686 I0 J0.2
G3 X-16.168 Y-170.545 I-0.141 J0.141
G1 X-16.176 Y-162.945
G3 X-16.376 Y-162.745 I-0.2 J0
G1 X-90.154
G3 X-90.351 Y-162.908 I0 J-0.2
G1 X-91.173 Y-167.253
G3 X-91.014 Y-167.486 I0.197 J-0.037
G3 X-90.976 Y-167.49 I0.037 J0.197
G1 X-90.898 Z-3.508 F350.
G1 X-90.823 Z-3.53
G1 X-90.754 Z-3.567
G1 X-90.694 Z-3.617
G1 X-90.644 Z-3.678
G1 X-90.607 Z-3.747
G1 X-90.584 Z-3.822
G1 X-90.576 Z-3.9
G1 Z-4.6
G1 X-90.569 Z-4.678
G1 X-90.546 Z-4.753
G1 X-90.509 Z-4.822
G1 X-90.459 Z-4.883
G1 X-90.399 Z-4.933
G1 X-90.33 Z-4.97
G1 X-90.255 Y-167.489 Z-4.992
G1 X-90.176 Z-5
G1 X-90.145
G1 X-18.261 Y-167.466 F400.
G1 X-16.368 Y-167.467
G3 X-16.226 Y-167.408 I0 J0.2
G3 X-16.168 Y-167.266 I-0.142 J0.141
G1 X-16.177 Y-166.177
G3 X-16.377 Y-165.979 I-0.2 J-0.002
G1 X-90.146
G3 X-90.346 Y-166.179 I0 J-0.2
G1 X-90.347 Y-170.545
G3 X-90.288 Y-170.686 I0.2 J0
G3 X-90.147 Y-170.745 I0.141 J0.141
G1 X-16.368
G3 X-16.226 Y-170.686 I0 J0.2
G3 X-16.168 Y-170.545 I-0.141 J0.141
G1 X-16.176 Y-162.945
G3 X-16.376 Y-162.745 I-0.2 J0
G1 X-90.154
G1 X-90.217 Y-162.75 F350.
G1 X-92.192 Y-163.063
G1 X-92.269 Y-163.075 Z-4.992
G1 X-92.343 Y-163.087 Z-4.97
G1 X-92.411 Y-163.098 Z-4.933
G1 X-92.471 Y-163.107 Z-4.883
G1 X-92.52 Y-163.115 Z-4.822
G1 X-92.557 Y-163.121 Z-4.753
G1 X-92.579 Y-163.124 Z-4.678
G1 X-92.587 Y-163.125 Z-4.6
G0 Z10
G0 X-94.663 Y-208.491
G0 Z4.5
G1 Z-3.1 F350.
G1 X-94.656 Z-3.178
G1 X-94.633 Z-3.253
G1 X-94.596 Z-3.322
G1 X-94.546 Z-3.383
G1 X-94.486 Z-3.433
G1 X-94.416 Z-3.47
G1 X-94.341 Z-3.492
G1 X-94.263 Z-3.5
G1 X-90.145 Y-208.489
G1 X-18.261 Y-208.466 F400.
G1 X-16.368 Y-208.467
G3 X-16.226 Y-208.408 I0 J0.2
G3 X-16.168 Y-208.266 I-0.142 J0.141
G1 X-16.177 Y-207.177
G3 X-16.377 Y-206.979 I-0.2 J-0.002
G1 X-90.146
G3 X-90.346 Y-207.179 I0 J-0.2
G1 X-90.347 Y-211.545
G3 X-90.288 Y-211.686 I0.2 J0
G3 X-90.147 Y-211.745 I0.141 J0.141
G1 X-16.368
G3 X-16.226 Y-211.686 I0 J0.2
G3 X-16.168 Y-211.545 I-0.141 J0.141
G1 X-16.176 Y-203.945
G3 X-16.376 Y-203.745 I-0.2 J0
G1 X-90.154
G3 X-90.351 Y-203.908 I0 J-0.2
G1 X-91.173 Y-208.253
G3 X-91.014 Y-208.486 I0.197 J-0.037
G3 X-90.976 Y-208.49 I0.037 J0.197
G1 X-90.898 Z-3.508 F350.
G1 X-90.823 Z-3.53
G1 X-90.754 Z-3.567
G1 X-90.694 Z-3.617
G1 X-90.644 Z-3.678
G1 X-90.607 Z-3.747
G1 X-90.584 Z-3.822
G1 X-90.576 Z-3.9
G1 Z-4.6
G1 X-90.569 Z-4.678
G1 X-90.546 Z-4.753
G1 X-90.509 Z-4.822
G1 X-90.459 Z-4.883
G1 X-90.399 Z-4.933
G1 X-90.33 Z-4.97
G1 X-90.255 Y-208.489 Z-4.992
G1 X-90.176 Z-5
G1 X-90.145
G1 X-18.261 Y-208.466 F400.
G1 X-16.368 Y-208.467
G3 X-16.226 Y-208.408 I0 J0.2
G3 X-16.168 Y-208.266 I-0.142 J0.141
G1 X-16.177 Y-207.177
G3 X-16.377 Y-206.979 I-0.2 J-0.002
G1 X-90.146
G3 X-90.346 Y-207.179 I0 J-0.2
G1 X-90.347 Y-211.545
G3 X-90.288 Y-211.686 I0.2 J0
G3 X-90.147 Y-211.745 I0.141 J0.141
G1 X-16.368
G3 X-16.226 Y-211.686 I0 J0.2
G3 X-16.168 Y-211.545 I-0.141 J0.141
G1 X-16.176 Y-203.945
G3 X-16.376 Y-203.745 I-0.2 J0
G1 X-90.154
G1 X-90.217 Y-203.75 F350.
G1 X-92.192 Y-204.063
G1 X-92.269 Y-204.075 Z-4.992
G1 X-92.343 Y-204.087 Z-4.97
G1 X-92.411 Y-204.098 Z-4.933
G1 X-92.471 Y-204.107 Z-4.883
G1 X-92.52 Y-204.115 Z-4.822
G1 X-92.557 Y-204.121 Z-4.753
G1 X-92.579 Y-204.124 Z-4.678
G1 X-92.587 Y-204.125 Z-4.6
G0 Z10
G0 X-94.663 Y-249.491
G0 Z4.5
G1 Z-3.1 F350.
G1 X-94.656 Z-3.178
G1 X-94.633 Z-3.253
G1 X-94.596 Z-3.322
G1 X-94.546 Z-3.383
G1 X-94.486 Z-3.433
G1 X-94.416 Z-3.47
G1 X-94.341 Z-3.492
G1 X-94.263 Z-3.5
G1 X-90.145 Y-249.489
G1 X-18.261 Y-249.466 F400.
G1 X-16.368 Y-249.467
G3 X-16.226 Y-249.408 I0 J0.2
G3 X-16.168 Y-249.266 I-0.142 J0.141
G1 X-16.177 Y-248.177
G3 X-16.377 Y-247.979 I-0.2 J-0.002
G1 X-90.146
G3 X-90.346 Y-248.179 I0 J-0.2
G1 X-90.347 Y-252.545
G3 X-90.288 Y-252.686 I0.2 J0
G3 X-90.147 Y-252.745 I0.141 J0.141
G1 X-16.368
G3 X-16.226 Y-252.686 I0 J0.2
G3 X-16.168 Y-252.545 I-0.141 J0.141
G1 X-16.176 Y-244.945
G3 X-16.376 Y-244.745 I-0.2 J0
G1 X-90.154
G3 X-90.351 Y-244.908 I0 J-0.2
G1 X-91.173 Y-249.253
G3 X-91.014 Y-249.486 I0.197 J-0.037
G3 X-90.976 Y-249.49 I0.037 J0.197
G1 X-90.898 Z-3.508 F350.
G1 X-90.823 Z-3.53
G1 X-90.754 Z-3.567
G1 X-90.694 Z-3.617
G1 X-90.644 Z-3.678
G1 X-90.607 Z-3.747
G1 X-90.584 Z-3.822
G1 X-90.576 Z-3.9
G1 Z-4.6
G1 X-90.569 Z-4.678
G1 X-90.546 Z-4.753
G1 X-90.509 Z-4.822
G1 X-90.459 Z-4.883
G1 X-90.399 Z-4.933
G1 X-90.33 Z-4.97
G1 X-90.255 Y-249.489 Z-4.992
G1 X-90.176 Z-5
G1 X-90.145
G1 X-18.261 Y-249.466 F400.
G1 X-16.368 Y-249.467
G3 X-16.226 Y-249.408 I0 J0.2
G3 X-16.168 Y-249.266 I-0.142 J0.141
G1 X-16.177 Y-248.177
G3 X-16.377 Y-247.979 I-0.2 J-0.002
G1 X-90.146
G3 X-90.346 Y-248.179 I0 J-0.2
G1 X-90.347 Y-252.545
G3 X-90.288 Y-252.686 I0.2 J0
G3 X-90.147 Y-252.745 I0.141 J0.141
G1 X-16.368
G3 X-16.226 Y-252.686 I0 J0.2
G3 X-16.168 Y-252.545 I-0.141 J0.141
G1 X-16.176 Y-244.945
G3 X-16.376 Y-244.745 I-0.2 J0
G1 X-90.154
G1 X-90.217 Y-244.75 F350.
G1 X-92.192 Y-245.063
G1 X-92.269 Y-245.075 Z-4.992
G1 X-92.343 Y-245.087 Z-4.97
G1 X-92.411 Y-245.098 Z-4.933
G1 X-92.471 Y-245.107 Z-4.883
G1 X-92.52 Y-245.115 Z-4.822
G1 X-92.557 Y-245.121 Z-4.753
G1 X-92.579 Y-245.124 Z-4.678
G1 X-92.587 Y-245.125 Z-4.6
G0 Z10
G0 X-94.663 Y-290.491
G0 Z4.5
G1 Z-3.1 F350.
G1 X-94.656 Z-3.178
G1 X-94.633 Z-3.253
G1 X-94.596 Z-3.322
G1 X-94.546 Z-3.383
G1 X-94.486 Z-3.433
G1 X-94.416 Z-3.47
G1 X-94.341 Z-3.492
G1 X-94.263 Z-3.5
G1 X-90.145 Y-290.489
G1 X-18.261 Y-290.466 F400.
G1 X-16.368 Y-290.467
G3 X-16.226 Y-290.408 I0 J0.2
G3 X-16.168 Y-290.266 I-0.142 J0.141
G1 X-16.177 Y-289.177
G3 X-16.377 Y-288.979 I-0.2 J-0.002
G1 X-90.146
G3 X-90.346 Y-289.179 I0 J-0.2
G1 X-90.347 Y-293.545
G3 X-90.288 Y-293.686 I0.2 J0
G3 X-90.147 Y-293.745 I0.141 J0.141
G1 X-16.368
G3 X-16.226 Y-293.686 I0 J0.2
G3 X-16.168 Y-293.545 I-0.141 J0.141
G1 X-16.176 Y-285.945
G3 X-16.376 Y-285.745 I-0.2 J0
G1 X-90.154
G3 X-90.351 Y-285.908 I0 J-0.2
G1 X-91.173 Y-290.253
G3 X-91.014 Y-290.486 I0.197 J-0.037
G3 X-90.976 Y-290.49 I0.037 J0.197
G1 X-90.898 Z-3.508 F350.
G1 X-90.823 Z-3.53
G1 X-90.754 Z-3.567
G1 X-90.694 Z-3.617
G1 X-90.644 Z-3.678
G1 X-90.607 Z-3.747
G1 X-90.584 Z-3.822
G1 X-90.576 Z-3.9
G1 Z-4.6
G1 X-90.569 Z-4.678
G1 X-90.546 Z-4.753
G1 X-90.509 Z-4.822
G1 X-90.459 Z-4.883
G1 X-90.399 Z-4.933
G1 X-90.33 Y-290.489 Z-4.97
G1 X-90.255 Z-4.992
G1 X-90.176 Z-5
G1 X-90.145
G1 X-18.261 Y-290.466 F400.
G1 X-16.368 Y-290.467
G3 X-16.226 Y-290.408 I0 J0.2
G3 X-16.168 Y-290.266 I-0.142 J0.141
G1 X-16.177 Y-289.177
G3 X-16.377 Y-288.979 I-0.2 J-0.002
G1 X-90.146
G3 X-90.346 Y-289.179 I0 J-0.2
G1 X-90.347 Y-293.545
G3 X-90.288 Y-293.686 I0.2 J0
G3 X-90.147 Y-293.745 I0.141 J0.141
G1 X-16.368
G3 X-16.226 Y-293.686 I0 J0.2
G3 X-16.168 Y-293.545 I-0.141 J0.141
G1 X-16.176 Y-285.945
G3 X-16.376 Y-285.745 I-0.2 J0
G1 X-90.154
G1 X-90.217 Y-285.75 F350.
G1 X-92.192 Y-286.063
G1 X-92.269 Y-286.075 Z-4.992
G1 X-92.343 Y-286.087 Z-4.97
G1 X-92.411 Y-286.098 Z-4.933
G1 X-92.471 Y-286.107 Z-4.883
G1 X-92.52 Y-286.115 Z-4.822
G1 X-92.557 Y-286.121 Z-4.753
G1 X-92.579 Y-286.124 Z-4.678
G1 X-92.587 Y-286.125 Z-4.6
G0 Z10
G0 X-11.875 Y-336.437
G0 Z4.5
G1 Z-3.1 F350.
G1 X-11.882 Z-3.178
G1 X-11.905 Z-3.253
G1 X-11.942 Z-3.322
G1 X-11.992 Z-3.383
G1 X-12.052 Z-3.433
G1 X-12.122 Z-3.47
G1 X-12.197 Z-3.492
G1 X-12.275 Z-3.5
G1 X-16.375
G1 X-90.144 F400.
G1 X-90.16 F350.
G1 X-90.238 Z-3.492
G1 X-90.313 Z-3.47
G1 X-90.382 Z-3.433
G1 X-90.443 Z-3.383
G1 X-90.492 Z-3.322
G1 X-90.529 Z-3.253
G1 X-90.552 Z-3.178
G1 X-90.56 Z-3.1
G0 Z5
G0 X-11.875 Y-333.227
G0 Z4.5
G1 Z-3.1 F350.
G1 X-11.882 Z-3.178
G1 X-11.905 Z-3.253
G1 X-11.942 Z-3.322
G1 X-11.992 Z-3.383
G1 X-12.052 Z-3.433
G1 X-12.122 Z-3.47
G1 X-12.197 Z-3.492
G1 X-12.275 Y-333.228 Z-3.5
G1 X-16.366 Y-333.229
G1 X-88.261 Y-333.253 F400.
G1 X-90.154 Y-333.251
G1 X-90.17 F350.
G1 X-90.248 Z-3.492
G1 X-90.323 Z-3.47
G1 X-90.392 Z-3.433
G1 X-90.452 Z-3.383
G1 X-90.502 Z-3.322
G1 X-90.539 Z-3.253
G1 X-90.562 Z-3.178
G1 X-90.57 Z-3.1
G0 Z5
G0 X-11.877 Y-329.979
G0 Z4.5
G1 Z-3.1 F350.
G1 X-11.884 Z-3.178
G1 X-11.907 Z-3.253
G1 X-11.944 Z-3.322
G1 X-11.994 Z-3.383
G1 X-12.054 Z-3.433
G1 X-12.123 Z-3.47
G1 X-12.198 Z-3.492
G1 X-12.277 Z-3.5
G1 X-16.377
G1 X-90.146 F400.
G1 X-92.146 F350.
G1 X-92.224 Z-3.492
G1 X-92.299 Z-3.47
G1 X-92.368 Z-3.433
G1 X-92.429 Z-3.383
G1 X-92.479 Z-3.322
G1 X-92.516 Z-3.253
G1 X-92.538 Z-3.178
G1 X-92.546 Z-3.1
G0 Z5
G0 X-11.878 Y-327.452
G0 Z4.5
G1 Z-3.14 F350.
G1 X-11.884 Y-327.451 Z-3.21
G1 X-11.905 Y-327.448 Z-3.278
G1 X-11.937 Y-327.443 Z-3.34
G1 X-11.982 Y-327.436 Z-3.395
G1 X-12.036 Y-327.427 Z-3.439
G1 X-12.097 Y-327.418 Z-3.473
G1 X-12.164 Y-327.407 Z-3.493
G1 X-12.233 Y-327.396 Z-3.5
G1 X-16.313 Y-326.75
G1 X-16.376 Y-326.745
G1 X-90.154 F400.
G1 X-90.217 Y-326.75 F350.
G1 X-92.192 Y-327.063
G1 X-92.269 Y-327.075 Z-3.492
G1 X-92.343 Y-327.087 Z-3.47
G1 X-92.411 Y-327.098 Z-3.433
G1 X-92.471 Y-327.107 Z-3.383
G1 X-92.52 Y-327.115 Z-3.322
G1 X-92.557 Y-327.121 Z-3.253
G1 X-92.579 Y-327.124 Z-3.178
G1 X-92.587 Y-327.125 Z-3.1
G0 Z5
G0 X-11.875 Y-336.437
G0 Z4.5
G1 Z-4.6 F350.
G1 X-11.882 Z-4.678
G1 X-11.905 Z-4.753
G1 X-11.942 Z-4.822
G1 X-11.992 Z-4.883
G1 X-12.052 Z-4.933
G1 X-12.122 Z-4.97
G1 X-12.197 Z-4.992
G1 X-12.275 Z-5
G1 X-16.375
G1 X-90.144 F400.
G1 X-90.16 F350.
G1 X-90.238 Z-4.992
G1 X-90.313 Z-4.97
G1 X-90.382 Z-4.933
G1 X-90.443 Z-4.883
G1 X-90.492 Z-4.822
G1 X-90.529 Z-4.753
G1 X-90.552 Z-4.678
G1 X-90.56 Z-4.6
G0 Z5
G0 X-11.875 Y-333.227
G0 Z4.5
G1 Z-4.6 F350.
G1 X-11.882 Z-4.678
G1 X-11.905 Z-4.753
G1 X-11.942 Z-4.822
G1 X-11.992 Z-4.883
G1 X-12.052 Z-4.933
G1 X-12.122 Z-4.97
G1 X-12.197 Z-4.992
G1 X-12.275 Y-333.228 Z-5
G1 X-16.366 Y-333.229
G1 X-88.261 Y-333.253 F400.
G1 X-90.154 Y-333.251
G1 X-90.17 F350.
G1 X-90.248 Z-4.992
G1 X-90.323 Z-4.97
G1 X-90.392 Z-4.933
G1 X-90.452 Z-4.883
G1 X-90.502 Z-4.822
G1 X-90.539 Z-4.753
G1 X-90.562 Z-4.678
G1 X-90.57 Z-4.6
G0 Z5
G0 X-11.877 Y-329.979
G0 Z4.5
G1 Z-4.6 F350.
G1 X-11.884 Z-4.678
G1 X-11.907 Z-4.753
G1 X-11.944 Z-4.822
G1 X-11.994 Z-4.883
G1 X-12.054 Z-4.933
G1 X-12.123 Z-4.97
G1 X-12.198 Z-4.992
G1 X-12.277 Z-5
G1 X-16.377
G1 X-90.146 F400.
G1 X-92.146 F350.
G1 X-92.224 Z-4.992
G1 X-92.299 Z-4.97
G1 X-92.368 Z-4.933
G1 X-92.429 Z-4.883
G1 X-92.479 Z-4.822
G1 X-92.516 Z-4.753
G1 X-92.538 Z-4.678
G1 X-92.546 Z-4.6
G0 Z5
G0 X-11.878 Y-327.452
G0 Z4.5
G1 Z-4.64 F350.
G1 X-11.884 Y-327.451 Z-4.71
G1 X-11.905 Y-327.448 Z-4.778
G1 X-11.937 Y-327.443 Z-4.84
G1 X-11.982 Y-327.436 Z-4.895
G1 X-12.036 Y-327.427 Z-4.939
G1 X-12.097 Y-327.418 Z-4.973
G1 X-12.164 Y-327.407 Z-4.993
G1 X-12.233 Y-327.396 Z-5
G1 X-16.313 Y-326.75
G1 X-16.376 Y-326.745
G1 X-90.154 F400.
G1 X-90.217 Y-326.75 F350.
G1 X-92.192 Y-327.063
G1 X-92.269 Y-327.075 Z-4.992
G1 X-92.343 Y-327.087 Z-4.97
G1 X-92.411 Y-327.098 Z-4.933
G1 X-92.471 Y-327.107 Z-4.883
G1 X-92.52 Y-327.115 Z-4.822
G1 X-92.557 Y-327.121 Z-4.753
G1 X-92.579 Y-327.124 Z-4.678
G1 X-92.587 Y-327.125 Z-4.6
G0 Z10

(2D POCKET6)
G0 X-37.321 Y-425.477
G0 Z10
G0 Z4.5
G1 Z-3.1 F350.
G1 Y-425.47 Z-3.178
G1 Y-425.447 Z-3.253
G1 Y-425.41 Z-3.322
G1 Y-425.36 Z-3.383
G1 Y-425.3 Z-3.433
G1 Y-425.23 Z-3.47
G1 Y-425.155 Z-3.492
G1 Y-425.077 Z-3.5
G1 X-37.318 Y-420.95
G1 X-37.301 Y-395.522 F400.
G2 X-37.226 Y-395.201 I0.722 J0
G1 X-31.6 Y-383.872
G2 X-30.633 Y-383.547 I0.646 J-0.321
G2 X-30.308 Y-384.513 I-0.321 J-0.646
G1 X-34.264 Y-392.48
G3 X-35.859 Y-399.276 I13.685 J-6.796
G1 X-35.843 Y-420.802
G2 X-36.03 Y-421.001 I-0.2 J0
G1 X-40.367 Y-421.284
G2 X-40.517 Y-421.23 I-0.013 J0.2
G2 X-40.58 Y-421.084 I0.137 J0.146
G1 Y-395.522
G2 X-40.163 Y-393.743 I4 J0
G1 X-34.536 Y-382.414
G2 X-29.175 Y-380.611 I3.582 J-1.779
G2 X-26.954 Y-384.193 I-1.779 J-3.582
G2 X-27.371 Y-385.972 I-4 J0
G1 X-31.328 Y-393.938
G3 X-32.58 Y-399.276 I10.748 J-5.337
G1 Y-417.693
G1 Y-420.171
G1 X-32.585 Y-420.234 F350.
G1 X-32.898 Y-422.209
G1 X-32.91 Y-422.287 Z-3.492
G1 X-32.922 Y-422.361 Z-3.47
G1 X-32.933 Y-422.429 Z-3.433
G1 X-32.942 Y-422.489 Z-3.383
G1 X-32.95 Y-422.538 Z-3.322
G1 X-32.956 Y-422.574 Z-3.253
G1 X-32.959 Y-422.597 Z-3.178
G1 X-32.96 Y-422.605 Z-3.1
G0 Z10
G0 X-34.564 Y-434.315
G0 Z4.5
G1 Z-3.1 F350.
G1 Y-434.323 Z-3.178
G1 Y-434.345 Z-3.253
G1 Y-434.382 Z-3.322
G1 Y-434.432 Z-3.383
G1 Y-434.493 Z-3.433
G1 Y-434.562 Z-3.47
G1 Y-434.637 Z-3.492
G1 Y-434.715 Z-3.5
G1 X-34.567 Y-438.851
G1 X-34.583 Y-460.415 F400.
G3 X-32.988 Y-467.161 I15.066 J0
G1 X-29.032 Y-475.128
G2 X-29.357 Y-476.094 I-0.646 J-0.321
G2 X-29.678 Y-476.169 I-0.321 J0.646
G2 X-30.324 Y-475.769 I0 J0.721
G1 X-35.95 Y-464.44
G2 X-36.025 Y-464.119 I0.646 J0.321
G1 X-36.042 Y-438.69
G2 X-35.842 Y-438.49 I0.2 J0
G2 X-35.808 Y-438.493 I0 J-0.2
G1 X-31.469 Y-439.257
G2 X-31.304 Y-439.454 I-0.035 J-0.197
G1 Y-460.365
G3 X-30.052 Y-465.703 I12 J0
G1 X-26.095 Y-473.669
G2 X-27.899 Y-479.031 I-3.583 J-1.779
G2 X-29.678 Y-479.448 I-1.779 J3.583
G2 X-33.26 Y-477.227 I0 J4
G1 X-38.887 Y-465.898
G2 X-39.304 Y-464.119 I3.583 J1.779
G1 Y-440.448
G1 Y-438.555
G1 X-39.299 Y-438.492 F350.
G1 X-38.986 Y-436.517
G1 X-38.974 Y-436.44 Z-3.492
G1 X-38.962 Y-436.366 Z-3.47
G1 X-38.951 Y-436.298 Z-3.433
G1 X-38.942 Y-436.238 Z-3.383
G1 X-38.934 Y-436.189 Z-3.322
G1 X-38.928 Y-436.152 Z-3.253
G1 X-38.925 Y-436.13 Z-3.178
G1 X-38.924 Y-436.122 Z-3.1
G0 Z10
G0 X55.27 Y-26.285
G0 Z4.5
G1 Z-3.1 F350.
G1 Y-26.277 Z-3.178
G1 Y-26.254 Z-3.253
G1 Y-26.217 Z-3.322
G1 Y-26.168 Z-3.383
G1 Y-26.107 Z-3.433
G1 Y-26.038 Z-3.47
G1 Y-25.963 Z-3.492
G1 Y-25.885 Z-3.5
G1 X55.273 Y-21.758
G1 X55.29 Y3.671 F400.
G2 X55.365 Y3.992 I0.721 J0
G1 X60.991 Y15.321
G2 X61.958 Y15.646 I0.646 J-0.321
G2 X62.283 Y14.679 I-0.321 J-0.646
G1 X58.305 Y6.668
G3 X56.732 Y-0.083 I13.494 J-6.701
G1 X56.748 Y-21.609
G2 X56.561 Y-21.809 I-0.2 J0
G1 X52.224 Y-22.092
G2 X52.074 Y-22.038 I-0.013 J0.2
G2 X52.011 Y-21.892 I0.137 J0.146
G1 Y3.671
G2 X52.429 Y5.45 I4 J0
G1 X58.055 Y16.779
G2 X63.416 Y18.583 I3.583 J-1.779
G2 X65.429 Y16.275 I-1.779 J-3.583
G2 X65.22 Y13.221 I-3.791 J-1.275
G1 X61.264 Y5.254
G3 X60.011 Y-0.083 I10.748 J-5.338
G1 Y-18.5
G1 Y-20.979
G1 X60.006 Y-21.041 F350.
G1 X59.693 Y-23.017
G1 X59.681 Y-23.094 Z-3.492
G1 X59.669 Y-23.168 Z-3.47
G1 X59.659 Y-23.236 Z-3.433
G1 X59.649 Y-23.296 Z-3.383
G1 X59.641 Y-23.345 Z-3.322
G1 X59.635 Y-23.382 Z-3.253
G1 X59.632 Y-23.404 Z-3.178
G1 X59.631 Y-23.412 Z-3.1
G0 Z10
G0 X55.27 Y-106.284
G0 Z4.5
G1 Z-3.1 F350.
G1 Y-106.277 Z-3.178
G1 Y-106.254 Z-3.253
G1 Y-106.217 Z-3.322
G1 Y-106.167 Z-3.383
G1 Y-106.107 Z-3.433
G1 Y-106.037 Z-3.47
G1 Y-105.962 Z-3.492
G1 Y-105.884 Z-3.5
G1 X55.273 Y-101.757
G1 X55.29 Y-76.329 F400.
G2 X55.365 Y-76.008 I0.721 J0
G1 X60.991 Y-64.679
G2 X61.958 Y-64.354 I0.646 J-0.321
G2 X62.283 Y-65.321 I-0.321 J-0.646
G1 X58.305 Y-73.332
G3 X56.732 Y-80.083 I13.494 J-6.701
G1 X56.748 Y-101.609
G2 X56.561 Y-101.809 I-0.2 J0
G1 X52.224 Y-102.091
G2 X52.074 Y-102.037 I-0.013 J0.2
G2 X52.011 Y-101.891 I0.137 J0.146
G1 Y-76.329
G2 X52.429 Y-74.55 I4 J0
G1 X54.076 Y-71.232
G1 X58.055 Y-63.221
G2 X63.416 Y-61.417 I3.583 J-1.779
G2 X65.429 Y-63.725 I-1.779 J-3.583
G2 X65.22 Y-66.779 I-3.791 J-1.275
G1 X61.264 Y-74.746
G3 X60.011 Y-80.083 I10.748 J-5.338
G1 Y-98.5
G1 Y-100.979
G1 X60.006 Y-101.041 F350.
G1 X59.693 Y-103.017
G1 X59.681 Y-103.094 Z-3.492
G1 X59.669 Y-103.168 Z-3.47
G1 X59.659 Y-103.236 Z-3.433
G1 X59.649 Y-103.296 Z-3.383
G1 X59.641 Y-103.345 Z-3.322
G1 X59.635 Y-103.382 Z-3.253
G1 X59.632 Y-103.404 Z-3.178
G1 X59.631 Y-103.412 Z-3.1
G0 Z10
G0 X55.27 Y-186.284
G0 Z4.5
G1 Z-3.1 F350.
G1 Y-186.277 Z-3.178
G1 Y-186.254 Z-3.253
G1 Y-186.217 Z-3.322
G1 Y-186.167 Z-3.383
G1 Y-186.107 Z-3.433
G1 Y-186.037 Z-3.47
G1 Y-185.962 Z-3.492
G1 Y-185.884 Z-3.5
G1 X55.273 Y-181.757
G1 X55.29 Y-156.329 F400.
G2 X55.365 Y-156.008 I0.721 J0
G1 X60.991 Y-144.679
G2 X61.407 Y-144.316 I0.646 J-0.321
G2 X61.958 Y-144.354 I0.23 J-0.684
G2 X62.283 Y-145.321 I-0.321 J-0.646
G1 X58.305 Y-153.332
G3 X56.732 Y-160.083 I13.494 J-6.701
G1 X56.748 Y-181.609
G2 X56.561 Y-181.808 I-0.2 J0
G1 X52.224 Y-182.091
G2 X52.074 Y-182.037 I-0.013 J0.2
G2 X52.011 Y-181.891 I0.137 J0.146
G1 Y-156.329
G2 X52.429 Y-154.55 I4 J0
G1 X58.055 Y-143.221
G2 X63.417 Y-141.417 I3.583 J-1.779
G2 X65.22 Y-146.779 I-1.779 J-3.583
G1 X61.264 Y-154.745
G3 X60.011 Y-160.083 I10.748 J-5.338
G1 Y-178.5
G1 Y-180.978
G1 X60.006 Y-181.041 F350.
G1 X59.693 Y-183.016
G1 X59.681 Y-183.094 Z-3.492
G1 X59.669 Y-183.168 Z-3.47
G1 X59.659 Y-183.236 Z-3.433
G1 X59.649 Y-183.296 Z-3.383
G1 X59.641 Y-183.345 Z-3.322
G1 X59.635 Y-183.381 Z-3.253
G1 X59.632 Y-183.404 Z-3.178
G1 X59.631 Y-183.412 Z-3.1
G0 Z10
G0 X55.27 Y-586.284
G0 Z4.5
G1 Z-3.1 F350.
G1 Y-586.277 Z-3.178
G1 Y-586.254 Z-3.253
G1 Y-586.217 Z-3.322
G1 Y-586.167 Z-3.383
G1 Y-586.107 Z-3.433
G1 Y-586.037 Z-3.47
G1 Y-585.962 Z-3.492
G1 Y-585.884 Z-3.5
G1 X55.273 Y-581.757
G1 X55.29 Y-556.329 F400.
G2 X55.365 Y-556.008 I0.722 J0
G1 X60.991 Y-544.679
G2 X61.407 Y-544.316 I0.646 J-0.321
G2 X61.958 Y-544.354 I0.23 J-0.684
G2 X62.283 Y-545.321 I-0.321 J-0.646
G1 X58.305 Y-553.332
G3 X56.732 Y-560.083 I13.494 J-6.701
G1 X56.748 Y-581.609
G2 X56.561 Y-581.808 I-0.2 J0
G1 X52.224 Y-582.091
G2 X52.074 Y-582.037 I-0.013 J0.2
G2 X52.011 Y-581.891 I0.137 J0.146
G1 Y-556.329
G2 X52.429 Y-554.55 I4 J0
G1 X58.055 Y-543.221
G2 X63.417 Y-541.417 I3.583 J-1.779
G2 X65.22 Y-546.779 I-1.779 J-3.583
G1 X61.264 Y-554.745
G3 X60.011 Y-560.083 I10.748 J-5.338
G1 Y-578.5
G1 Y-580.978
G1 X60.006 Y-581.041 F350.
G1 X59.693 Y-583.016
G1 X59.681 Y-583.093 Z-3.492
G1 X59.669 Y-583.168 Z-3.47
G1 X59.659 Y-583.236 Z-3.433
G1 X59.649 Y-583.296 Z-3.383
G1 X59.641 Y-583.345 Z-3.322
G1 X59.635 Y-583.381 Z-3.253
G1 X59.632 Y-583.404 Z-3.178
G1 X59.631 Y-583.411 Z-3.1
G0 Z10
G0 X55.27 Y-506.289
G0 Z4.5
G1 Z-3.1 F350.
G1 Y-506.281 Z-3.178
G1 Y-506.259 Z-3.253
G1 Y-506.222 Z-3.322
G1 Y-506.172 Z-3.383
G1 Y-506.111 Z-3.433
G1 Y-506.042 Z-3.47
G1 Y-505.967 Z-3.492
G1 Y-505.889 Z-3.5
G1 X55.273 Y-501.753
G1 X55.29 Y-476.329 F400.
G2 X55.365 Y-476.008 I0.721 J0
G1 X60.991 Y-464.679
G2 X61.407 Y-464.316 I0.646 J-0.321
G2 X61.958 Y-464.354 I0.23 J-0.684
G2 X62.283 Y-465.321 I-0.321 J-0.646
G1 X58.305 Y-473.332
G3 X56.732 Y-480.083 I13.494 J-6.701
G1 X56.748 Y-501.609
G2 X56.561 Y-501.808 I-0.2 J0
G1 X52.224 Y-502.091
G2 X52.074 Y-502.037 I-0.013 J0.2
G2 X52.011 Y-501.891 I0.137 J0.146
G1 Y-476.329
G2 X52.429 Y-474.55 I4 J0
G1 X58.055 Y-463.221
G2 X63.417 Y-461.417 I3.583 J-1.779
G2 X65.22 Y-466.779 I-1.779 J-3.583
G1 X61.264 Y-474.745
G3 X60.011 Y-480.083 I10.748 J-5.338
G1 Y-498.5
G1 Y-500.978
G1 X60.006 Y-501.041 F350.
G1 X59.693 Y-503.016
G1 X59.681 Y-503.094 Z-3.492
G1 X59.669 Y-503.168 Z-3.47
G1 X59.659 Y-503.236 Z-3.433
G1 X59.649 Y-503.296 Z-3.383
G1 X59.641 Y-503.345 Z-3.322
G1 X59.635 Y-503.381 Z-3.253
G1 X59.632 Y-503.404 Z-3.178
G1 X59.631 Y-503.411 Z-3.1
G0 Z10
G0 X55.27 Y-426.289
G0 Z4.5
G1 Z-3.1 F350.
G1 Y-426.281 Z-3.178
G1 Y-426.259 Z-3.253
G1 Y-426.222 Z-3.322
G1 Y-426.172 Z-3.383
G1 Y-426.111 Z-3.433
G1 Y-426.042 Z-3.47
G1 Y-425.967 Z-3.492
G1 Y-425.889 Z-3.5
G1 X55.273 Y-421.753
G1 X55.29 Y-396.329 F400.
G2 X55.365 Y-396.008 I0.721 J0
G1 X60.991 Y-384.679
G2 X61.407 Y-384.316 I0.646 J-0.321
G2 X61.958 Y-384.354 I0.23 J-0.684
G2 X62.283 Y-385.321 I-0.321 J-0.646
G1 X58.305 Y-393.332
G3 X56.732 Y-400.083 I13.494 J-6.701
G1 X56.748 Y-421.609
G2 X56.561 Y-421.808 I-0.2 J0
G1 X52.224 Y-422.091
G2 X52.074 Y-422.037 I-0.013 J0.2
G2 X52.011 Y-421.891 I0.137 J0.146
G1 Y-396.329
G2 X52.429 Y-394.55 I4 J0
G1 X58.055 Y-383.221
G2 X63.417 Y-381.417 I3.583 J-1.779
G2 X65.22 Y-386.779 I-1.779 J-3.583
G1 X61.264 Y-394.745
G3 X60.011 Y-400.083 I10.748 J-5.338
G1 Y-418.5
G1 Y-420.978
G1 X60.006 Y-421.041 F350.
G1 X59.693 Y-423.016
G1 X59.681 Y-423.094 Z-3.492
G1 X59.669 Y-423.168 Z-3.47
G1 X59.659 Y-423.236 Z-3.433
G1 X59.649 Y-423.296 Z-3.383
G1 X59.641 Y-423.345 Z-3.322
G1 X59.635 Y-423.381 Z-3.253
G1 X59.632 Y-423.404 Z-3.178
G1 X59.631 Y-423.411 Z-3.1
G0 Z10
G0 X55.27 Y-346.284
G0 Z4.5
G1 Z-3.1 F350.
G1 Y-346.277 Z-3.178
G1 Y-346.254 Z-3.253
G1 Y-346.217 Z-3.322
G1 Y-346.167 Z-3.383
G1 Y-346.107 Z-3.433
G1 Y-346.037 Z-3.47
G1 Y-345.962 Z-3.492
G1 Y-345.884 Z-3.5
G1 X55.273 Y-341.757
G1 X55.29 Y-316.329 F400.
G2 X55.365 Y-316.008 I0.722 J0
G1 X60.991 Y-304.679
G2 X61.407 Y-304.316 I0.646 J-0.321
G2 X61.958 Y-304.354 I0.23 J-0.684
G2 X62.283 Y-305.321 I-0.321 J-0.646
G1 X58.305 Y-313.332
G3 X56.732 Y-320.083 I13.494 J-6.701
G1 X56.748 Y-341.609
G2 X56.561 Y-341.808 I-0.2 J0
G1 X52.224 Y-342.091
G2 X52.074 Y-342.037 I-0.013 J0.2
G2 X52.011 Y-341.891 I0.137 J0.146
G1 Y-316.329
G2 X52.429 Y-314.55 I4 J0
G1 X58.055 Y-303.221
G2 X63.417 Y-301.417 I3.583 J-1.779
G2 X65.22 Y-306.779 I-1.779 J-3.583
G1 X61.264 Y-314.745
G3 X60.011 Y-320.083 I10.748 J-5.338
G1 Y-338.5
G1 Y-340.978
G1 X60.006 Y-341.041 F350.
G1 X59.693 Y-343.016
G1 X59.681 Y-343.094 Z-3.492
G1 X59.669 Y-343.168 Z-3.47
G1 X59.659 Y-343.236 Z-3.433
G1 X59.649 Y-343.296 Z-3.383
G1 X59.641 Y-343.345 Z-3.322
G1 X59.635 Y-343.381 Z-3.253
G1 X59.632 Y-343.404 Z-3.178
G1 X59.631 Y-343.411 Z-3.1
G0 Z10
G0 X55.27 Y-266.284
G0 Z4.5
G1 Z-3.1 F350.
G1 Y-266.277 Z-3.178
G1 Y-266.254 Z-3.253
G1 Y-266.217 Z-3.322
G1 Y-266.167 Z-3.383
G1 Y-266.107 Z-3.433
G1 Y-266.037 Z-3.47
G1 Y-265.962 Z-3.492
G1 Y-265.884 Z-3.5
G1 X55.273 Y-261.757
G1 X55.29 Y-236.329 F400.
G2 X55.365 Y-236.008 I0.722 J0
G1 X60.991 Y-224.679
G2 X61.407 Y-224.316 I0.646 J-0.321
G2 X61.958 Y-224.354 I0.23 J-0.684
G2 X62.283 Y-225.321 I-0.321 J-0.646
G1 X58.305 Y-233.332
G3 X56.732 Y-240.083 I13.494 J-6.701
G1 X56.748 Y-261.609
G2 X56.561 Y-261.808 I-0.2 J0
G1 X52.224 Y-262.091
G2 X52.074 Y-262.037 I-0.013 J0.2
G2 X52.011 Y-261.891 I0.137 J0.146
G1 Y-236.329
G2 X52.429 Y-234.55 I4 J0
G1 X58.055 Y-223.221
G2 X63.417 Y-221.417 I3.583 J-1.779
G2 X65.22 Y-226.779 I-1.779 J-3.583
G1 X61.264 Y-234.745
G3 X60.011 Y-240.083 I10.748 J-5.338
G1 Y-258.5
G1 Y-260.978
G1 X60.006 Y-261.041 F350.
G1 X59.693 Y-263.016
G1 X59.681 Y-263.094 Z-3.492
G1 X59.669 Y-263.168 Z-3.47
G1 X59.659 Y-263.236 Z-3.433
G1 X59.649 Y-263.296 Z-3.383
G1 X59.641 Y-263.345 Z-3.322
G1 X59.635 Y-263.381 Z-3.253
G1 X59.632 Y-263.404 Z-3.178
G1 X59.631 Y-263.411 Z-3.1
G0 Z10

G0 Z15
M5
M30
