(1001)
(T1  D=4 CR=0 - ZMIN=-12 - FLAT END MILL)
G0 G40 G90 G17
G21

(DRILL6)
T1 M6
M3 S15000
G0 X0 Y-531.228
G0 Z15
G0 Z5
G1 Z-12 F85.
G0 Z5
G0 X53.261 Y-310.245
G1 Z-12 F85.
G0 Z5
G0 X0 Y-265.614
G1 Z-12 F85.
G0 Z5
G0 X53.261 Y-138.745
G1 Z-12 F85.
G0 Z5
G0 X0 Y0
G1 Z-12 F85.
G0 Z5
G0 X53.261 Y29.255
G1 Z-12 F85.
G0 Z5
G0 Z15

(2D POCKET8)
G0 X-55.27 Y-586.272
G0 Z10
G0 Z4.5
G1 Z-3.1 F350.
G1 Y-586.264 Z-3.178
G1 Y-586.241 Z-3.253
G1 Y-586.204 Z-3.322
G1 Y-586.154 Z-3.383
G1 Y-586.094 Z-3.433
G1 Y-586.025 Z-3.47
G1 Y-585.95 Z-3.492
G1 Y-585.872 Z-3.5
G1 X-55.273 Y-581.753
G1 X-55.29 Y-556.329 F400.
G3 X-55.365 Y-556.008 I-0.722 J0
G1 X-60.991 Y-544.679
G3 X-61.407 Y-544.316 I-0.646 J-0.321
G3 X-61.958 Y-544.354 I-0.23 J-0.684
G3 X-62.283 Y-545.321 I0.321 J-0.646
G1 X-58.305 Y-553.332
G2 X-56.732 Y-560.083 I-13.494 J-6.701
G1 X-56.748 Y-581.609
G3 X-56.561 Y-581.808 I0.2 J0
G1 X-52.224 Y-582.091
G3 X-52.074 Y-582.037 I0.013 J0.2
G3 X-52.011 Y-581.891 I-0.137 J0.146
G1 Y-556.329
G3 X-52.429 Y-554.55 I-4 J0
G1 X-58.055 Y-543.221
G3 X-63.417 Y-541.417 I-3.583 J-1.779
G3 X-65.429 Y-543.725 I1.779 J-3.583
G3 X-65.22 Y-546.779 I3.791 J-1.275
G1 X-61.264 Y-554.745
G2 X-60.011 Y-560.083 I-10.748 J-5.338
G1 Y-578.5
G1 Y-580.978
G1 X-60.006 Y-581.041 F350.
G1 X-59.693 Y-583.016
G1 X-59.681 Y-583.093 Z-3.492
G1 X-59.669 Y-583.168 Z-3.47
G1 X-59.659 Y-583.236 Z-3.433
G1 X-59.649 Y-583.296 Z-3.383
G1 X-59.641 Y-583.345 Z-3.322
G1 X-59.635 Y-583.381 Z-3.253
G1 X-59.632 Y-583.404 Z-3.178
G1 X-59.631 Y-583.411 Z-3.1
G0 Z10
G0 X-55.27 Y-506.272
G0 Z4.5
G1 Z-3.1 F350.
G1 Y-506.264 Z-3.178
G1 Y-506.241 Z-3.253
G1 Y-506.204 Z-3.322
G1 Y-506.154 Z-3.383
G1 Y-506.094 Z-3.433
G1 Y-506.025 Z-3.47
G1 Y-505.95 Z-3.492
G1 Y-505.872 Z-3.5
G1 X-55.273 Y-501.753
G1 X-55.29 Y-476.329 F400.
G3 X-55.365 Y-476.008 I-0.722 J0
G1 X-60.991 Y-464.679
G3 X-61.407 Y-464.316 I-0.646 J-0.321
G3 X-61.958 Y-464.354 I-0.23 J-0.684
G3 X-62.283 Y-465.321 I0.321 J-0.646
G1 X-58.305 Y-473.332
G2 X-56.732 Y-480.083 I-13.494 J-6.701
G1 X-56.748 Y-501.609
G3 X-56.561 Y-501.808 I0.2 J0
G1 X-52.224 Y-502.091
G3 X-52.074 Y-502.037 I0.013 J0.2
G3 X-52.011 Y-501.891 I-0.137 J0.146
G1 Y-476.329
G3 X-52.429 Y-474.55 I-4 J0
G1 X-58.055 Y-463.221
G3 X-63.417 Y-461.417 I-3.583 J-1.779
G3 X-65.429 Y-463.725 I1.779 J-3.583
G3 X-65.22 Y-466.779 I3.791 J-1.275
G1 X-61.264 Y-474.745
G2 X-60.011 Y-480.083 I-10.748 J-5.338
G1 Y-498.5
G1 Y-500.978
G1 X-60.006 Y-501.041 F350.
G1 X-59.693 Y-503.016
G1 X-59.681 Y-503.094 Z-3.492
G1 X-59.669 Y-503.168 Z-3.47
G1 X-59.659 Y-503.236 Z-3.433
G1 X-59.649 Y-503.296 Z-3.383
G1 X-59.641 Y-503.345 Z-3.322
G1 X-59.635 Y-503.381 Z-3.253
G1 X-59.632 Y-503.404 Z-3.178
G1 X-59.631 Y-503.411 Z-3.1
G0 Z10
G0 X-55.27 Y-426.272
G0 Z4.5
G1 Z-3.1 F350.
G1 Y-426.264 Z-3.178
G1 Y-426.241 Z-3.253
G1 Y-426.204 Z-3.322
G1 Y-426.154 Z-3.383
G1 Y-426.094 Z-3.433
G1 Y-426.025 Z-3.47
G1 Y-425.95 Z-3.492
G1 Y-425.872 Z-3.5
G1 X-55.273 Y-421.753
G1 X-55.29 Y-396.329 F400.
G3 X-55.365 Y-396.008 I-0.722 J0
G1 X-60.991 Y-384.679
G3 X-61.407 Y-384.316 I-0.646 J-0.321
G3 X-61.958 Y-384.354 I-0.23 J-0.684
G3 X-62.283 Y-385.321 I0.321 J-0.646
G1 X-58.305 Y-393.332
G2 X-56.732 Y-400.083 I-13.494 J-6.701
G1 X-56.748 Y-421.609
G3 X-56.561 Y-421.808 I0.2 J0
G1 X-52.224 Y-422.091
G3 X-52.074 Y-422.037 I0.013 J0.2
G3 X-52.011 Y-421.891 I-0.137 J0.146
G1 Y-396.329
G3 X-52.429 Y-394.55 I-4 J0
G1 X-58.055 Y-383.221
G3 X-63.417 Y-381.417 I-3.583 J-1.779
G3 X-65.429 Y-383.725 I1.779 J-3.583
G3 X-65.22 Y-386.779 I3.791 J-1.275
G1 X-61.264 Y-394.745
G2 X-60.011 Y-400.083 I-10.748 J-5.338
G1 Y-418.5
G1 Y-420.978
G1 X-60.006 Y-421.041 F350.
G1 X-59.693 Y-423.016
G1 X-59.681 Y-423.094 Z-3.492
G1 X-59.669 Y-423.168 Z-3.47
G1 X-59.659 Y-423.236 Z-3.433
G1 X-59.649 Y-423.296 Z-3.383
G1 X-59.641 Y-423.345 Z-3.322
G1 X-59.635 Y-423.381 Z-3.253
G1 X-59.632 Y-423.404 Z-3.178
G1 X-59.631 Y-423.411 Z-3.1
G0 Z10
G0 X-55.27 Y-346.272
G0 Z4.5
G1 Z-3.1 F350.
G1 Y-346.264 Z-3.178
G1 Y-346.241 Z-3.253
G1 Y-346.204 Z-3.322
G1 Y-346.154 Z-3.383
G1 Y-346.094 Z-3.433
G1 Y-346.025 Z-3.47
G1 Y-345.95 Z-3.492
G1 Y-345.872 Z-3.5
G1 X-55.273 Y-341.753
G1 X-55.29 Y-316.329 F400.
G3 X-55.365 Y-316.008 I-0.722 J0
G1 X-60.991 Y-304.679
G3 X-61.407 Y-304.316 I-0.646 J-0.321
G3 X-61.958 Y-304.354 I-0.23 J-0.684
G3 X-62.283 Y-305.321 I0.321 J-0.646
G1 X-58.305 Y-313.332
G2 X-56.732 Y-320.083 I-13.494 J-6.701
G1 X-56.748 Y-341.609
G3 X-56.561 Y-341.808 I0.2 J0
G1 X-52.224 Y-342.091
G3 X-52.074 Y-342.037 I0.013 J0.2
G3 X-52.011 Y-341.891 I-0.137 J0.146
G1 Y-316.329
G3 X-52.429 Y-314.55 I-4 J0
G1 X-58.055 Y-303.221
G3 X-63.417 Y-301.417 I-3.583 J-1.779
G3 X-65.429 Y-303.725 I1.779 J-3.583
G3 X-65.22 Y-306.779 I3.791 J-1.275
G1 X-61.264 Y-314.745
G2 X-60.011 Y-320.083 I-10.748 J-5.338
G1 Y-338.5
G1 Y-340.978
G1 X-60.006 Y-341.041 F350.
G1 X-59.693 Y-343.016
G1 X-59.681 Y-343.094 Z-3.492
G1 X-59.669 Y-343.168 Z-3.47
G1 X-59.659 Y-343.236 Z-3.433
G1 X-59.649 Y-343.296 Z-3.383
G1 X-59.641 Y-343.345 Z-3.322
G1 X-59.635 Y-343.381 Z-3.253
G1 X-59.632 Y-343.404 Z-3.178
G1 X-59.631 Y-343.411 Z-3.1
G0 Z10
G0 X-55.27 Y-266.272
G0 Z4.5
G1 Z-3.1 F350.
G1 Y-266.264 Z-3.178
G1 Y-266.241 Z-3.253
G1 Y-266.204 Z-3.322
G1 Y-266.154 Z-3.383
G1 Y-266.094 Z-3.433
G1 Y-266.025 Z-3.47
G1 Y-265.95 Z-3.492
G1 Y-265.872 Z-3.5
G1 X-55.273 Y-261.753
G1 X-55.29 Y-236.329 F400.
G3 X-55.365 Y-236.008 I-0.722 J0
G1 X-60.991 Y-224.679
G3 X-61.407 Y-224.316 I-0.646 J-0.321
G3 X-61.958 Y-224.354 I-0.23 J-0.684
G3 X-62.283 Y-225.321 I0.321 J-0.646
G1 X-58.305 Y-233.332
G2 X-56.732 Y-240.083 I-13.494 J-6.701
G1 X-56.748 Y-261.609
G3 X-56.561 Y-261.808 I0.2 J0
G1 X-52.224 Y-262.091
G3 X-52.074 Y-262.037 I0.013 J0.2
G3 X-52.011 Y-261.891 I-0.137 J0.146
G1 Y-236.329
G3 X-52.429 Y-234.55 I-4 J0
G1 X-58.055 Y-223.221
G3 X-63.417 Y-221.417 I-3.583 J-1.779
G3 X-65.22 Y-226.779 I1.779 J-3.583
G1 X-61.264 Y-234.745
G2 X-60.011 Y-240.083 I-10.748 J-5.338
G1 Y-258.5
G1 Y-260.978
G1 X-60.006 Y-261.041 F350.
G1 X-59.693 Y-263.016
G1 X-59.681 Y-263.094 Z-3.492
G1 X-59.669 Y-263.168 Z-3.47
G1 X-59.659 Y-263.236 Z-3.433
G1 X-59.649 Y-263.296 Z-3.383
G1 X-59.641 Y-263.345 Z-3.322
G1 X-59.635 Y-263.381 Z-3.253
G1 X-59.632 Y-263.404 Z-3.178
G1 X-59.631 Y-263.411 Z-3.1
G0 Z10
G0 X-55.27 Y-186.272
G0 Z4.5
G1 Z-3.1 F350.
G1 Y-186.264 Z-3.178
G1 Y-186.241 Z-3.253
G1 Y-186.204 Z-3.322
G1 Y-186.154 Z-3.383
G1 Y-186.094 Z-3.433
G1 Y-186.025 Z-3.47
G1 Y-185.95 Z-3.492
G1 Y-185.872 Z-3.5
G1 X-55.273 Y-181.753
G1 X-55.29 Y-156.329 F400.
G3 X-55.365 Y-156.008 I-0.722 J0
G1 X-60.991 Y-144.679
G3 X-61.407 Y-144.316 I-0.646 J-0.321
G3 X-61.958 Y-144.354 I-0.23 J-0.684
G3 X-62.283 Y-145.321 I0.321 J-0.646
G1 X-58.305 Y-153.332
G2 X-56.732 Y-160.083 I-13.494 J-6.701
G1 X-56.748 Y-181.609
G3 X-56.561 Y-181.808 I0.2 J0
G1 X-52.224 Y-182.091
G3 X-52.074 Y-182.037 I0.013 J0.2
G3 X-52.011 Y-181.891 I-0.137 J0.146
G1 Y-156.329
G3 X-52.429 Y-154.55 I-4 J0
G1 X-58.055 Y-143.221
G3 X-63.417 Y-141.417 I-3.583 J-1.779
G3 X-65.22 Y-146.779 I1.779 J-3.583
G1 X-61.264 Y-154.745
G2 X-60.011 Y-160.083 I-10.748 J-5.338
G1 Y-178.5
G1 Y-180.978
G1 X-60.006 Y-181.041 F350.
G1 X-59.693 Y-183.016
G1 X-59.681 Y-183.094 Z-3.492
G1 X-59.669 Y-183.168 Z-3.47
G1 X-59.659 Y-183.236 Z-3.433
G1 X-59.649 Y-183.296 Z-3.383
G1 X-59.641 Y-183.345 Z-3.322
G1 X-59.635 Y-183.381 Z-3.253
G1 X-59.632 Y-183.404 Z-3.178
G1 X-59.631 Y-183.412 Z-3.1
G0 Z10
G0 X-55.27 Y-26.272
G0 Z4.5
G1 Z-3.1 F350.
G1 Y-26.264 Z-3.178
G1 Y-26.242 Z-3.253
G1 Y-26.205 Z-3.322
G1 Y-26.155 Z-3.383
G1 Y-26.094 Z-3.433
G1 Y-26.025 Z-3.47
G1 Y-25.95 Z-3.492
G1 Y-25.872 Z-3.5
G1 X-55.273 Y-21.754
G1 X-55.29 Y3.671 F400.
G3 X-55.365 Y3.992 I-0.721 J0
G1 X-60.991 Y15.321
G3 X-61.958 Y15.646 I-0.646 J-0.321
G3 X-62.283 Y14.679 I0.321 J-0.646
G1 X-58.305 Y6.668
G2 X-56.732 Y-0.083 I-13.494 J-6.701
G1 X-56.748 Y-21.609
G3 X-56.561 Y-21.809 I0.2 J0
G1 X-52.224 Y-22.092
G3 X-52.074 Y-22.038 I0.013 J0.2
G3 X-52.011 Y-21.892 I-0.137 J0.146
G1 Y3.671
G3 X-52.429 Y5.45 I-4 J0
G1 X-58.055 Y16.779
G3 X-63.416 Y18.583 I-3.583 J-1.779
G3 X-65.429 Y16.275 I1.779 J-3.583
G3 X-65.22 Y13.221 I3.791 J-1.275
G1 X-61.264 Y5.254
G2 X-60.011 Y-0.083 I-10.748 J-5.338
G1 Y-18.5
G1 Y-20.979
G1 X-60.006 Y-21.041 F350.
G1 X-59.693 Y-23.017
G1 X-59.681 Y-23.094 Z-3.492
G1 X-59.669 Y-23.168 Z-3.47
G1 X-59.659 Y-23.236 Z-3.433
G1 X-59.649 Y-23.296 Z-3.383
G1 X-59.641 Y-23.345 Z-3.322
G1 X-59.635 Y-23.382 Z-3.253
G1 X-59.632 Y-23.404 Z-3.178
G1 X-59.631 Y-23.412 Z-3.1
G0 Z10
G0 X-55.27 Y-106.272
G0 Z4.5
G1 Z-3.1 F350.
G1 Y-106.264 Z-3.178
G1 Y-106.241 Z-3.253
G1 Y-106.204 Z-3.322
G1 Y-106.154 Z-3.383
G1 Y-106.094 Z-3.433
G1 Y-106.025 Z-3.47
G1 Y-105.95 Z-3.492
G1 Y-105.872 Z-3.5
G1 X-55.273 Y-101.753
G1 X-55.29 Y-76.329 F400.
G3 X-55.365 Y-76.008 I-0.721 J0
G1 X-60.991 Y-64.679
G3 X-61.958 Y-64.354 I-0.646 J-0.321
G3 X-62.283 Y-65.321 I0.321 J-0.646
G1 X-58.305 Y-73.332
G2 X-56.732 Y-80.083 I-13.494 J-6.701
G1 X-56.748 Y-101.609
G3 X-56.561 Y-101.809 I0.2 J0
G1 X-52.224 Y-102.091
G3 X-52.074 Y-102.037 I0.013 J0.2
G3 X-52.011 Y-101.891 I-0.137 J0.146
G1 Y-76.329
G3 X-52.429 Y-74.55 I-4 J0
G1 X-58.055 Y-63.221
G3 X-63.416 Y-61.417 I-3.583 J-1.779
G3 X-65.429 Y-63.725 I1.779 J-3.583
G3 X-65.22 Y-66.779 I3.791 J-1.275
G1 X-61.264 Y-74.746
G2 X-60.011 Y-80.083 I-10.748 J-5.338
G1 Y-98.5
G1 Y-100.979
G1 X-60.006 Y-101.041 F350.
G1 X-59.693 Y-103.017
G1 X-59.681 Y-103.094 Z-3.492
G1 X-59.669 Y-103.168 Z-3.47
G1 X-59.659 Y-103.236 Z-3.433
G1 X-59.649 Y-103.296 Z-3.383
G1 X-59.641 Y-103.345 Z-3.322
G1 X-59.635 Y-103.382 Z-3.253
G1 X-59.632 Y-103.404 Z-3.178
G1 X-59.631 Y-103.412 Z-3.1
G0 Z10

G0 Z15
M5
M30
